%
(Header)
(Generated by gcodetools from Inkscape.)
(Using default header. To add your own header create file "header" in the output dir.)
M3
(Header end.)
G21 (All units in mm)

(Start cutting path id: path4834-3)
(Change tool to Default tool)

G00 Z5.000000
G00 X94.187502 Y13.472653

G01 Z-0.125000 F100.0(Penetrate)
G01 X95.720700 Y18.517578 Z-0.125000 F400.000000
G01 X92.236328 Y15.345703 Z-0.125000
G01 X94.187502 Y13.472653 Z-0.125000
G00 Z5.000000

(End cutting path id: path4834-3)


(Start cutting path id: path4834-1)
(Change tool to Default tool)

G00 Z5.000000
G00 X99.046845 Y14.144531

G01 Z-0.125000 F100.0(Penetrate)
G01 X97.958981 Y16.798828 Z-0.125000 F400.000000
G01 X95.720700 Y18.517578 Z-0.125000
G01 X94.187502 Y13.472653 Z-0.125000
G01 X96.689729 Y13.895590 Z-0.125000
G01 X99.046845 Y14.144531 Z-0.125000
G00 Z5.000000

(End cutting path id: path4834-1)


(Start cutting path id: path4616-4)
(Change tool to Default tool)

G00 Z5.000000
G00 X95.720700 Y18.517578

G01 Z-0.125000 F100.0(Penetrate)
G01 X95.390622 Y19.056641 Z-0.125000 F400.000000
G01 X91.796875 Y18.041016 Z-0.125000
G01 X92.236328 Y15.345703 Z-0.125000
G01 X95.720700 Y18.517578 Z-0.125000
G00 Z5.000000

(End cutting path id: path4616-4)


(Start cutting path id: path7446)
(Change tool to Default tool)

G00 Z5.000000
G00 X70.300781 Y65.732422

G01 Z-0.125000 F100.0(Penetrate)
G01 X73.845703 Y62.246094 Z-0.125000 F400.000000
G01 X75.794922 Y63.046875 Z-0.125000
G01 X75.867192 Y63.208984 Z-0.125000
G01 X71.992192 Y65.732422 Z-0.125000
G01 X70.300781 Y65.732422 Z-0.125000
G00 Z5.000000

(End cutting path id: path7446)


(Start cutting path id: path7444)
(Change tool to Default tool)

G00 Z5.000000
G00 X70.300781 Y65.732422

G01 Z-0.125000 F100.0(Penetrate)
G01 X69.730469 Y65.732422 Z-0.125000 F400.000000
G01 X69.730469 Y64.541016 Z-0.125000
G01 X71.884766 Y60.875000 Z-0.125000
G01 X73.097656 Y60.578125 Z-0.125000
G01 X73.845703 Y62.246094 Z-0.125000
G01 X70.300781 Y65.732422 Z-0.125000
G00 Z5.000000

(End cutting path id: path7444)


(Start cutting path id: path7442)
(Change tool to Default tool)

G00 Z5.000000
G00 X73.845703 Y62.246094

G01 Z-0.125000 F100.0(Penetrate)
G01 X73.097656 Y60.578125 Z-0.125000 F400.000000
G01 X73.474609 Y59.871094 Z-0.125000
G01 X74.273438 Y59.751953 Z-0.125000
G01 X76.025391 Y62.298828 Z-0.125000
G01 X75.794922 Y63.046875 Z-0.125000
G01 X73.845703 Y62.246094 Z-0.125000
G00 Z5.000000

(End cutting path id: path7442)


(Start cutting path id: path7440)
(Change tool to Default tool)

G00 Z5.000000
G00 X75.794922 Y63.046875

G01 Z-0.125000 F100.0(Penetrate)
G01 X76.025391 Y62.298828 Z-0.125000 F400.000000
G01 X77.074219 Y60.296875 Z-0.125000
G01 X78.457031 Y60.894531 Z-0.125000
G01 X78.927734 Y62.972656 Z-0.125000
G01 X76.826172 Y64.232422 Z-0.125000
G01 X75.867188 Y63.208984 Z-0.125000
G01 X75.794922 Y63.046875 Z-0.125000
G00 Z5.000000

(End cutting path id: path7440)


(Start cutting path id: path7438)
(Change tool to Default tool)

G00 Z5.000000
G00 X75.867188 Y63.208984

G01 Z-0.125000 F100.0(Penetrate)
G01 X76.826172 Y64.232422 Z-0.125000 F400.000000
G01 X76.927734 Y65.732422 Z-0.125000
G01 X71.992188 Y65.732422 Z-0.125000
G01 X75.867188 Y63.208984 Z-0.125000
G00 Z5.000000

(End cutting path id: path7438)


(Start cutting path id: path7436)
(Change tool to Default tool)

G00 Z5.000000
G00 X76.927734 Y65.732422

G01 Z-0.125000 F100.0(Penetrate)
G01 X76.826172 Y64.232422 Z-0.125000 F400.000000
G01 X78.927734 Y62.972656 Z-0.125000
G01 X78.958984 Y62.978556 Z-0.125000
G01 X79.789062 Y63.718790 Z-0.125000
G01 X80.140625 Y64.466837 Z-0.125000
G01 X79.912109 Y64.980509 Z-0.125000
G01 X78.806641 Y65.732462 Z-0.125000
G01 X76.927734 Y65.732422 Z-0.125000
G00 Z5.000000

(End cutting path id: path7436)


(Start cutting path id: path7434)
(Change tool to Default tool)

G00 Z5.000000
G00 X78.806641 Y65.732422

G01 Z-0.125000 F100.0(Penetrate)
G01 X79.912109 Y64.980469 Z-0.125000 F400.000000
G01 X80.531250 Y65.732422 Z-0.125000
G01 X78.806641 Y65.732422 Z-0.125000
G00 Z5.000000

(End cutting path id: path7434)


(Start cutting path id: path7432)
(Change tool to Default tool)

G00 Z5.000000
G00 X80.531250 Y65.732422

G01 Z-0.125000 F100.0(Penetrate)
G01 X79.912109 Y64.980469 Z-0.125000 F400.000000
G01 X80.140625 Y64.466797 Z-0.125000
G01 X81.582031 Y64.599609 Z-0.125000
G01 X81.582031 Y65.732422 Z-0.125000
G01 X80.531250 Y65.732422 Z-0.125000
G00 Z5.000000

(End cutting path id: path7432)


(Start cutting path id: path7430)
(Change tool to Default tool)

G00 Z5.000000
G00 X81.582031 Y65.732422

G01 Z-0.125000 F100.0(Penetrate)
G01 X81.582031 Y64.599609 Z-0.125000 F400.000000
G01 X81.925781 Y64.214844 Z-0.125000
G01 X85.097656 Y65.269531 Z-0.125000
G01 X85.166016 Y65.576172 Z-0.125000
G01 X85.158216 Y65.732422 Z-0.125000
G01 X81.582031 Y65.732422 Z-0.125000
G00 Z5.000000

(End cutting path id: path7430)


(Start cutting path id: path7428)
(Change tool to Default tool)

G00 Z5.000000
G00 X85.158203 Y65.732422

G01 Z-0.125000 F100.0(Penetrate)
G01 X85.166003 Y65.576172 Z-0.125000 F400.000000
G01 X88.693346 Y64.507812 Z-0.125000
G01 X90.044909 Y65.732422 Z-0.125000
G01 X85.158203 Y65.732422 Z-0.125000
G00 Z5.000000

(End cutting path id: path7428)


(Start cutting path id: path7426)
(Change tool to Default tool)

G00 Z5.000000
G00 X90.044922 Y65.732422

G01 Z-0.125000 F100.0(Penetrate)
G01 X88.693359 Y64.507812 Z-0.125000 F400.000000
G01 X88.386719 Y63.244141 Z-0.125000
G01 X89.000000 Y62.339844 Z-0.125000
G01 X89.093750 Y62.267574 Z-0.125000
G01 X91.183594 Y63.755855 Z-0.125000
G01 X90.822266 Y65.732418 Z-0.125000
G01 X90.044922 Y65.732422 Z-0.125000
G00 Z5.000000

(End cutting path id: path7426)


(Start cutting path id: path7424)
(Change tool to Default tool)

G00 Z5.000000
G00 X90.822266 Y65.732422

G01 Z-0.125000 F100.0(Penetrate)
G01 X91.183594 Y63.755859 Z-0.125000 F400.000000
G01 X91.550781 Y63.326172 Z-0.125000
G01 X93.843750 Y63.121094 Z-0.125000
G01 X94.093750 Y64.822266 Z-0.125000
G01 X94.201172 Y65.732422 Z-0.125000
G01 X90.822266 Y65.732422 Z-0.125000
G00 Z5.000000

(End cutting path id: path7424)


(Start cutting path id: path7422)
(Change tool to Default tool)

G00 Z5.000000
G00 X94.201172 Y65.732422

G01 Z-0.125000 F100.0(Penetrate)
G01 X94.093750 Y64.822266 Z-0.125000 F400.000000
G01 X95.644531 Y63.519531 Z-0.125000
G01 X96.085938 Y64.279297 Z-0.125000
G01 X95.148438 Y65.732422 Z-0.125000
G01 X94.201172 Y65.732422 Z-0.125000
G00 Z5.000000

(End cutting path id: path7422)


(Start cutting path id: path7420)
(Change tool to Default tool)

G00 Z5.000000
G00 X95.148438 Y65.732422

G01 Z-0.125000 F100.0(Penetrate)
G01 X96.085938 Y64.279297 Z-0.125000 F400.000000
G01 X97.462891 Y63.662109 Z-0.125000
G01 X99.183594 Y65.732422 Z-0.125000
G01 X95.148438 Y65.732422 Z-0.125000
G00 Z5.000000

(End cutting path id: path7420)


(Start cutting path id: path7418)
(Change tool to Default tool)

G00 Z5.000000
G00 X99.183594 Y65.732422

G01 Z-0.125000 F100.0(Penetrate)
G01 X97.462891 Y63.662109 Z-0.125000 F400.000000
G01 X97.371091 Y62.353516 Z-0.125000
G01 X98.177731 Y61.771484 Z-0.125000
G01 X99.326169 Y62.677734 Z-0.125000
G01 X99.382809 Y65.732422 Z-0.125000
G01 X99.183594 Y65.732422 Z-0.125000
G00 Z5.000000

(End cutting path id: path7418)


(Start cutting path id: path7416)
(Change tool to Default tool)

G00 Z5.000000
G00 X99.382812 Y65.732422

G01 Z-0.125000 F100.0(Penetrate)
G01 X99.326172 Y62.677734 Z-0.125000 F400.000000
G01 X101.023440 Y62.357422 Z-0.125000
G01 X101.537110 Y62.820312 Z-0.125000
G01 X101.339840 Y64.417969 Z-0.125000
G01 X100.728520 Y65.732422 Z-0.125000
G01 X99.382812 Y65.732422 Z-0.125000
G00 Z5.000000

(End cutting path id: path7416)


(Start cutting path id: path7414)
(Change tool to Default tool)

G00 Z5.000000
G00 X100.728520 Y65.732422

G01 Z-0.125000 F100.0(Penetrate)
G01 X101.339840 Y64.417969 Z-0.125000 F400.000000
G01 X103.750000 Y64.027344 Z-0.125000
G01 X103.738300 Y65.732422 Z-0.125000
G01 X100.728520 Y65.732422 Z-0.125000
G00 Z5.000000

(End cutting path id: path7414)


(Start cutting path id: path7412)
(Change tool to Default tool)

G00 Z5.000000
G00 X103.738280 Y65.732422

G01 Z-0.125000 F100.0(Penetrate)
G01 X103.749980 Y64.027344 Z-0.125000 F400.000000
G01 X103.902320 Y63.857422 Z-0.125000
G01 X106.148420 Y64.316406 Z-0.125000
G01 X106.814430 Y65.732422 Z-0.125000
G01 X103.738280 Y65.732422 Z-0.125000
G00 Z5.000000

(End cutting path id: path7412)


(Start cutting path id: path7410)
(Change tool to Default tool)

G00 Z5.000000
G00 X106.814450 Y65.732422

G01 Z-0.125000 F100.0(Penetrate)
G01 X106.148440 Y64.316406 Z-0.125000 F400.000000
G01 X106.111340 Y62.960938 Z-0.125000
G01 X106.517590 Y61.767578 Z-0.125000
G01 X107.324230 Y61.564453 Z-0.125000
G01 X108.304700 Y61.578123 Z-0.125000
G01 X109.158210 Y61.974607 Z-0.125000
G01 X109.248110 Y62.070307 Z-0.125000
G01 X108.845760 Y65.732417 Z-0.125000
G01 X106.814450 Y65.732422 Z-0.125000
G00 Z5.000000

(End cutting path id: path7410)


(Start cutting path id: path7408)
(Change tool to Default tool)

G00 Z5.000000
G00 X108.845700 Y65.732422

G01 Z-0.125000 F100.0(Penetrate)
G01 X109.248050 Y62.070312 Z-0.125000 F400.000000
G01 X110.746090 Y61.994142 Z-0.125000
G01 X111.253910 Y62.314454 Z-0.125000
G01 X111.609380 Y63.628907 Z-0.125000
G01 X109.462890 Y65.732423 Z-0.125000
G01 X108.845700 Y65.732422 Z-0.125000
G00 Z5.000000

(End cutting path id: path7408)


(Start cutting path id: path7406)
(Change tool to Default tool)

G00 Z5.000000
G00 X109.462890 Y65.732422

G01 Z-0.125000 F100.0(Penetrate)
G01 X111.609380 Y63.628906 Z-0.125000 F400.000000
G01 X112.740230 Y64.076172 Z-0.125000
G01 X112.455080 Y65.421875 Z-0.125000
G01 X109.707030 Y65.732422 Z-0.125000
G01 X109.462890 Y65.732422 Z-0.125000
G00 Z5.000000

(End cutting path id: path7406)


(Start cutting path id: path7404)
(Change tool to Default tool)

G00 Z5.000000
G00 X112.455080 Y65.421875

G01 Z-0.125000 F100.0(Penetrate)
G01 X112.740230 Y64.076172 Z-0.125000 F400.000000
G01 X115.316410 Y62.789062 Z-0.125000
G01 X115.494140 Y62.824222 Z-0.125000
G01 X115.416040 Y63.140628 Z-0.125000
G01 X114.087910 Y65.042972 Z-0.125000
G01 X112.455080 Y65.421875 Z-0.125000
G00 Z5.000000

(End cutting path id: path7404)


(Start cutting path id: path7402)
(Change tool to Default tool)

G00 Z5.000000
G00 X114.087890 Y65.042969

G01 Z-0.125000 F100.0(Penetrate)
G01 X115.416020 Y63.140625 Z-0.125000 F400.000000
G01 X115.371120 Y64.738281 Z-0.125000
G01 X114.087890 Y65.042969 Z-0.125000
G00 Z5.000000

(End cutting path id: path7402)


(Start cutting path id: path7400)
(Change tool to Default tool)

G00 Z5.000000
G00 X115.371090 Y64.738281

G01 Z-0.125000 F100.0(Penetrate)
G01 X115.415990 Y63.140625 Z-0.125000 F400.000000
G01 X115.494090 Y62.824219 Z-0.125000
G01 X115.943310 Y62.679688 Z-0.125000
G01 X117.031200 Y62.648438 Z-0.125000
G01 X116.828070 Y64.181641 Z-0.125000
G01 X115.371090 Y64.738281 Z-0.125000
G00 Z5.000000

(End cutting path id: path7400)


(Start cutting path id: path7398)
(Change tool to Default tool)

G00 Z5.000000
G00 X116.828120 Y64.181641

G01 Z-0.125000 F100.0(Penetrate)
G01 X117.031250 Y62.648438 Z-0.125000 F400.000000
G01 X117.050750 Y62.646438 Z-0.125000
G01 X117.701140 Y63.837845 Z-0.125000
G01 X116.828120 Y64.181641 Z-0.125000
G00 Z5.000000

(End cutting path id: path7398)


(Start cutting path id: path7396)
(Change tool to Default tool)

G00 Z5.000000
G00 X117.701170 Y63.837891

G01 Z-0.125000 F100.0(Penetrate)
G01 X117.050780 Y62.646484 Z-0.125000 F400.000000
G01 X118.513670 Y61.498047 Z-0.125000
G01 X118.636720 Y61.542967 Z-0.125000
G01 X120.308590 Y62.451170 Z-0.125000
G01 X117.701170 Y63.837891 Z-0.125000
G00 Z5.000000

(End cutting path id: path7396)


(Start cutting path id: path7394)
(Change tool to Default tool)

G00 Z5.000000
G00 X120.308590 Y62.451172

G01 Z-0.125000 F100.0(Penetrate)
G01 X118.636720 Y61.542969 Z-0.125000 F400.000000
G01 X121.859380 Y60.464844 Z-0.125000
G01 X122.167970 Y61.263672 Z-0.125000
G01 X120.308590 Y62.451172 Z-0.125000
G00 Z5.000000

(End cutting path id: path7394)


(Start cutting path id: path7392)
(Change tool to Default tool)

G00 Z5.000000
G00 X122.167970 Y61.263672

G01 Z-0.125000 F100.0(Penetrate)
G01 X121.859380 Y60.464844 Z-0.125000 F400.000000
G01 X122.224610 Y59.406250 Z-0.125000
G01 X123.685550 Y59.632812 Z-0.125000
G01 X122.167970 Y61.263672 Z-0.125000
G00 Z5.000000

(End cutting path id: path7392)


(Start cutting path id: path7390)
(Change tool to Default tool)

G00 Z5.000000
G00 X123.685550 Y59.632812

G01 Z-0.125000 F100.0(Penetrate)
G01 X122.224610 Y59.406250 Z-0.125000 F400.000000
G01 X122.048830 Y59.255859 Z-0.125000
G01 X122.812500 Y57.761719 Z-0.125000
G01 X123.826170 Y57.425781 Z-0.125000
G01 X124.695310 Y58.548828 Z-0.125000
G01 X123.685550 Y59.632812 Z-0.125000
G00 Z5.000000

(End cutting path id: path7390)


(Start cutting path id: path7388)
(Change tool to Default tool)

G00 Z5.000000
G00 X124.695310 Y58.548828

G01 Z-0.125000 F100.0(Penetrate)
G01 X123.826170 Y57.425781 Z-0.125000 F400.000000
G01 X123.664060 Y56.761719 Z-0.125000
G01 X124.203120 Y56.083984 Z-0.125000
G01 X125.693360 Y56.837891 Z-0.125000
G01 X124.695310 Y58.548828 Z-0.125000
G00 Z5.000000

(End cutting path id: path7388)


(Start cutting path id: path7386)
(Change tool to Default tool)

G00 Z5.000000
G00 X125.693360 Y56.837891

G01 Z-0.125000 F100.0(Penetrate)
G01 X124.203120 Y56.083984 Z-0.125000 F400.000000
G01 X124.599610 Y55.171875 Z-0.125000
G01 X125.722660 Y55.634766 Z-0.125000
G01 X126.009770 Y56.173828 Z-0.125000
G01 X125.693360 Y56.837891 Z-0.125000
G00 Z5.000000

(End cutting path id: path7386)


(Start cutting path id: path7384)
(Change tool to Default tool)

G00 Z5.000000
G00 X126.009770 Y56.173828

G01 Z-0.125000 F100.0(Penetrate)
G01 X125.722660 Y55.634766 Z-0.125000 F400.000000
G01 X126.857420 Y54.373047 Z-0.125000
G01 X126.861420 Y54.380847 Z-0.125000
G01 X126.009770 Y56.173828 Z-0.125000
G00 Z5.000000

(End cutting path id: path7384)


(Start cutting path id: path7382)
(Change tool to Default tool)

G00 Z5.000000
G00 X126.861330 Y54.380859

G01 Z-0.125000 F100.0(Penetrate)
G01 X126.857330 Y54.373059 Z-0.125000 F400.000000
G01 X126.828030 Y53.539074 Z-0.125000
G01 X127.181550 Y53.460954 Z-0.125000
G01 X126.861330 Y54.380859 Z-0.125000
G00 Z5.000000

(End cutting path id: path7382)


(Start cutting path id: path7380)
(Change tool to Default tool)

G00 Z5.000000
G00 X127.181640 Y53.460938

G01 Z-0.125000 F100.0(Penetrate)
G01 X126.828120 Y53.539058 Z-0.125000 F400.000000
G01 X126.025390 Y53.064449 Z-0.125000
G01 X125.894530 Y52.181637 Z-0.125000
G01 X126.363280 Y51.083980 Z-0.125000
G01 X127.431640 Y51.624996 Z-0.125000
G01 X127.181640 Y53.460938 Z-0.125000
G00 Z5.000000

(End cutting path id: path7380)


(Start cutting path id: path7378)
(Change tool to Default tool)

G00 Z5.000000
G00 X127.431640 Y51.625000

G01 Z-0.125000 F100.0(Penetrate)
G01 X126.363280 Y51.083984 Z-0.125000 F400.000000
G01 X126.449180 Y50.443359 Z-0.125000
G01 X126.503880 Y50.308594 Z-0.125000
G01 X127.679660 Y49.814453 Z-0.125000
G01 X127.431640 Y51.625000 Z-0.125000
G00 Z5.000000

(End cutting path id: path7378)


(Start cutting path id: path7376)
(Change tool to Default tool)

G00 Z5.000000
G00 X127.679690 Y49.814453

G01 Z-0.125000 F100.0(Penetrate)
G01 X126.503910 Y50.308594 Z-0.125000 F400.000000
G01 X125.218750 Y48.859375 Z-0.125000
G01 X125.500000 Y48.310547 Z-0.125000
G01 X126.511720 Y48.121094 Z-0.125000
G01 X127.855470 Y48.517578 Z-0.125000
G01 X127.679690 Y49.814453 Z-0.125000
G00 Z5.000000

(End cutting path id: path7376)


(Start cutting path id: path7374)
(Change tool to Default tool)

G00 Z5.000000
G00 X127.855470 Y48.517578

G01 Z-0.125000 F100.0(Penetrate)
G01 X126.511720 Y48.121094 Z-0.125000 F400.000000
G01 X126.927730 Y46.521484 Z-0.125000
G01 X127.759770 Y46.880859 Z-0.125000
G01 X127.916020 Y48.080078 Z-0.125000
G01 X127.855470 Y48.517578 Z-0.125000
G00 Z5.000000

(End cutting path id: path7374)


(Start cutting path id: path7372)
(Change tool to Default tool)

G00 Z5.000000
G00 X127.759770 Y46.880859

G01 Z-0.125000 F100.0(Penetrate)
G01 X126.927730 Y46.521484 Z-0.125000 F400.000000
G01 X126.769530 Y46.402344 Z-0.125000
G01 X126.810530 Y43.398438 Z-0.125000
G01 X126.917950 Y43.355468 Z-0.125000
G01 X127.326150 Y43.525390 Z-0.125000
G01 X127.759770 Y46.880859 Z-0.125000
G00 Z5.000000

(End cutting path id: path7372)


(Start cutting path id: path7370)
(Change tool to Default tool)

G00 Z5.000000
G00 X127.326170 Y43.525391

G01 Z-0.125000 F100.0(Penetrate)
G01 X126.917970 Y43.355469 Z-0.125000 F400.000000
G01 X127.113280 Y42.832031 Z-0.125000
G01 X127.224610 Y42.736331 Z-0.125000
G01 X127.326170 Y43.525391 Z-0.125000
G00 Z5.000000

(End cutting path id: path7370)


(Start cutting path id: path7368)
(Change tool to Default tool)

G00 Z5.000000
G00 X127.224610 Y42.736328

G01 Z-0.125000 F100.0(Penetrate)
G01 X127.113280 Y42.832028 Z-0.125000 F400.000000
G01 X127.031280 Y41.996091 Z-0.125000
G01 X127.224610 Y42.736328 Z-0.125000
G00 Z5.000000

(End cutting path id: path7368)


(Start cutting path id: path7366)
(Change tool to Default tool)

G00 Z5.000000
G00 X127.031250 Y41.996094

G01 Z-0.125000 F100.0(Penetrate)
G01 X127.113250 Y42.832031 Z-0.125000 F400.000000
G01 X126.917940 Y43.355469 Z-0.125000
G01 X126.810520 Y43.398439 Z-0.125000
G01 X126.095670 Y43.382809 Z-0.125000
G01 X125.027310 Y42.800778 Z-0.125000
G01 X123.939420 Y40.597653 Z-0.125000
G01 X124.029320 Y40.523433 Z-0.125000
G01 X125.255880 Y39.982417 Z-0.125000
G01 X126.800800 Y41.478511 Z-0.125000
G01 X127.031250 Y41.996094 Z-0.125000
G00 Z5.000000

(End cutting path id: path7366)


(Start cutting path id: path7364)
(Change tool to Default tool)

G00 Z5.000000
G00 X126.800780 Y41.478516

G01 Z-0.125000 F100.0(Penetrate)
G01 X125.255860 Y39.982422 Z-0.125000 F400.000000
G01 X125.904300 Y39.455078 Z-0.125000
G01 X126.800780 Y41.478516 Z-0.125000
G00 Z5.000000

(End cutting path id: path7364)


(Start cutting path id: path7362)
(Change tool to Default tool)

G00 Z5.000000
G00 X125.904300 Y39.455078

G01 Z-0.125000 F100.0(Penetrate)
G01 X125.255860 Y39.982422 Z-0.125000 F400.000000
G01 X124.029300 Y40.523438 Z-0.125000
G01 X124.621090 Y37.183594 Z-0.125000
G01 X125.904300 Y39.455078 Z-0.125000
G00 Z5.000000

(End cutting path id: path7362)


(Start cutting path id: path7360)
(Change tool to Default tool)

G00 Z5.000000
G00 X124.621090 Y37.183594

G01 Z-0.125000 F100.0(Penetrate)
G01 X124.029300 Y40.523438 Z-0.125000 F400.000000
G01 X123.939400 Y40.597658 Z-0.125000
G01 X123.408150 Y40.501958 Z-0.125000
G01 X122.054640 Y39.958989 Z-0.125000
G01 X120.574170 Y37.515630 Z-0.125000
G01 X122.749950 Y35.148443 Z-0.125000
G01 X122.972610 Y35.242193 Z-0.125000
G01 X124.621090 Y37.183594 Z-0.125000
G00 Z5.000000

(End cutting path id: path7360)


(Start cutting path id: path7358)
(Change tool to Default tool)

G00 Z5.000000
G00 X122.972660 Y35.242188

G01 Z-0.125000 F100.0(Penetrate)
G01 X122.750000 Y35.148438 Z-0.125000 F400.000000
G01 X122.724600 Y34.949219 Z-0.125000
G01 X122.972660 Y35.242188 Z-0.125000
G00 Z5.000000

(End cutting path id: path7358)


(Start cutting path id: path7356)
(Change tool to Default tool)

G00 Z5.000000
G00 X122.724610 Y34.949219

G01 Z-0.125000 F100.0(Penetrate)
G01 X122.750010 Y35.148438 Z-0.125000 F400.000000
G01 X120.574230 Y37.515625 Z-0.125000
G01 X120.568230 Y37.517625 Z-0.125000
G01 X120.452990 Y37.503955 Z-0.125000
G01 X118.449090 Y35.367237 Z-0.125000
G01 X119.423700 Y32.425830 Z-0.125000
G01 X122.724610 Y34.949219 Z-0.125000
G00 Z5.000000

(End cutting path id: path7356)


(Start cutting path id: path7354)
(Change tool to Default tool)

G00 Z5.000000
G00 X119.423830 Y32.425781

G01 Z-0.125000 F100.0(Penetrate)
G01 X118.449220 Y35.367188 Z-0.125000 F400.000000
G01 X116.144530 Y34.193359 Z-0.125000
G01 X116.062530 Y33.423828 Z-0.125000
G01 X116.066530 Y33.416028 Z-0.125000
G01 X118.119260 Y31.765637 Z-0.125000
G01 X119.423830 Y32.425781 Z-0.125000
G00 Z5.000000

(End cutting path id: path7354)


(Start cutting path id: path7352)
(Change tool to Default tool)

G00 Z5.000000
G00 X118.119140 Y31.765625

G01 Z-0.125000 F100.0(Penetrate)
G01 X116.066410 Y33.416016 Z-0.125000 F400.000000
G01 X114.695310 Y30.914062 Z-0.125000
G01 X115.089840 Y30.503906 Z-0.125000
G01 X118.119140 Y31.765625 Z-0.125000
G00 Z5.000000

(End cutting path id: path7352)


(Start cutting path id: path7350)
(Change tool to Default tool)

G00 Z5.000000
G00 X115.089840 Y30.503906

G01 Z-0.125000 F100.0(Penetrate)
G01 X114.695310 Y30.914062 Z-0.125000 F400.000000
G01 X114.078120 Y30.779297 Z-0.125000
G01 X114.068120 Y30.193359 Z-0.125000
G01 X115.089840 Y30.503906 Z-0.125000
G00 Z5.000000

(End cutting path id: path7350)


(Start cutting path id: path7348)
(Change tool to Default tool)

G00 Z5.000000
G00 X114.068360 Y30.193359

G01 Z-0.125000 F100.0(Penetrate)
G01 X114.078360 Y30.779297 Z-0.125000 F400.000000
G01 X112.890860 Y31.076172 Z-0.125000
G01 X112.613520 Y29.832031 Z-0.125000
G01 X114.068360 Y30.193359 Z-0.125000
G00 Z5.000000

(End cutting path id: path7348)


(Start cutting path id: path7346)
(Change tool to Default tool)

G00 Z5.000000
G00 X112.613280 Y29.832031

G01 Z-0.125000 F100.0(Penetrate)
G01 X112.890620 Y31.076172 Z-0.125000 F400.000000
G01 X112.724610 Y31.289062 Z-0.125000
G01 X110.187500 Y31.361332 Z-0.125000
G01 X109.195310 Y29.554692 Z-0.125000
G01 X109.173810 Y29.367192 Z-0.125000
G01 X111.621070 Y29.658207 Z-0.125000
G01 X112.613280 Y29.832031 Z-0.125000
G00 Z5.000000

(End cutting path id: path7346)


(Start cutting path id: path7344)
(Change tool to Default tool)

G00 Z5.000000
G00 X111.621090 Y29.658203

G01 Z-0.125000 F100.0(Penetrate)
G01 X109.173830 Y29.367188 Z-0.125000 F400.000000
G01 X109.033200 Y28.884766 Z-0.125000
G01 X110.310550 Y27.847656 Z-0.125000
G01 X112.992190 Y27.876956 Z-0.125000
G01 X113.095700 Y28.039065 Z-0.125000
G01 X112.949220 Y28.550784 Z-0.125000
G01 X110.517580 Y29.466800 Z-0.125000
G01 X111.621090 Y29.658203 Z-0.125000
G00 Z5.000000

(End cutting path id: path7344)


(Start cutting path id: path7342)
(Change tool to Default tool)

G00 Z5.000000
G00 X112.949220 Y28.550781

G01 Z-0.125000 F100.0(Penetrate)
G01 X113.095700 Y28.039062 Z-0.125000 F400.000000
G01 X113.289060 Y28.136722 Z-0.125000
G01 X113.458980 Y28.359378 Z-0.125000
G01 X112.949220 Y28.550781 Z-0.125000
G00 Z5.000000

(End cutting path id: path7342)


(Start cutting path id: path7340)
(Change tool to Default tool)

G00 Z5.000000
G00 X113.458980 Y28.359375

G01 Z-0.125000 F100.0(Penetrate)
G01 X113.289060 Y28.136719 Z-0.125000 F400.000000
G01 X113.875000 Y28.119139 Z-0.125000
G01 X113.966800 Y28.167969 Z-0.125000
G01 X113.458980 Y28.359375 Z-0.125000
G00 Z5.000000

(End cutting path id: path7340)


(Start cutting path id: path7338)
(Change tool to Default tool)

G00 Z5.000000
G00 X113.966800 Y28.167969

G01 Z-0.125000 F100.0(Penetrate)
G01 X113.875000 Y28.119139 Z-0.125000 F400.000000
G01 X114.357420 Y28.019529 Z-0.125000
G01 X113.966800 Y28.167969 Z-0.125000
G00 Z5.000000

(End cutting path id: path7338)


(Start cutting path id: path7336)
(Change tool to Default tool)

G00 Z5.000000
G00 X114.357420 Y28.019531

G01 Z-0.125000 F100.0(Penetrate)
G01 X113.875000 Y28.119141 Z-0.125000 F400.000000
G01 X113.289060 Y28.136721 Z-0.125000
G01 X113.095700 Y28.039061 Z-0.125000
G01 X112.992190 Y27.876952 Z-0.125000
G01 X113.089890 Y27.574218 Z-0.125000
G01 X114.740280 Y26.179687 Z-0.125000
G01 X115.353570 Y26.982421 Z-0.125000
G01 X115.279370 Y27.443358 Z-0.125000
G01 X115.089910 Y27.744140 Z-0.125000
G01 X114.357420 Y28.019531 Z-0.125000
G00 Z5.000000

(End cutting path id: path7336)


(Start cutting path id: path7334)
(Change tool to Default tool)

G00 Z5.000000
G00 X115.089840 Y27.744141

G01 Z-0.125000 F100.0(Penetrate)
G01 X115.279300 Y27.443359 Z-0.125000 F400.000000
G01 X115.486330 Y27.595703 Z-0.125000
G01 X115.089840 Y27.744141 Z-0.125000
G00 Z5.000000

(End cutting path id: path7334)


(Start cutting path id: path7332)
(Change tool to Default tool)

G00 Z5.000000
G00 X115.486330 Y27.595703

G01 Z-0.125000 F100.0(Penetrate)
G01 X115.279300 Y27.443359 Z-0.125000 F400.000000
G01 X115.353500 Y26.982422 Z-0.125000
G01 X116.509750 Y27.070312 Z-0.125000
G01 X116.101540 Y27.363281 Z-0.125000
G01 X115.486330 Y27.595703 Z-0.125000
G00 Z5.000000

(End cutting path id: path7332)


(Start cutting path id: path7330)
(Change tool to Default tool)

G00 Z5.000000
G00 X116.509770 Y27.070312

G01 Z-0.125000 F100.0(Penetrate)
G01 X115.353520 Y26.982422 Z-0.125000 F400.000000
G01 X114.740230 Y26.179688 Z-0.125000
G01 X115.003910 Y24.839844 Z-0.125000
G01 X115.070310 Y24.812504 Z-0.125000
G01 X118.498050 Y24.951176 Z-0.125000
G01 X118.734380 Y25.041016 Z-0.125000
G01 X118.615230 Y25.568359 Z-0.125000
G01 X116.509770 Y27.070312 Z-0.125000
G00 Z5.000000

(End cutting path id: path7330)


(Start cutting path id: path7328)
(Change tool to Default tool)

G00 Z5.000000
G00 X118.615230 Y25.568359

G01 Z-0.125000 F100.0(Penetrate)
G01 X118.734380 Y25.041016 Z-0.125000 F400.000000
G01 X119.039060 Y24.865234 Z-0.125000
G01 X119.253910 Y24.878904 Z-0.125000
G01 X118.933590 Y25.339842 Z-0.125000
G01 X118.615230 Y25.568359 Z-0.125000
G00 Z5.000000

(End cutting path id: path7328)


(Start cutting path id: path7326)
(Change tool to Default tool)

G00 Z5.000000
G00 X119.253910 Y24.878906

G01 Z-0.125000 F100.0(Penetrate)
G01 X119.039060 Y24.865236 Z-0.125000 F400.000000
G01 X119.285160 Y21.996096 Z-0.125000
G01 X121.214840 Y21.816408 Z-0.125000
G01 X120.228520 Y23.478518 Z-0.125000
G01 X119.253910 Y24.878906 Z-0.125000
G00 Z5.000000

(End cutting path id: path7326)


(Start cutting path id: path7324)
(Change tool to Default tool)

G00 Z5.000000
G00 X121.214840 Y21.816406

G01 Z-0.125000 F100.0(Penetrate)
G01 X119.285160 Y21.996094 Z-0.125000 F400.000000
G01 X119.054690 Y21.074219 Z-0.125000
G01 X120.595700 Y20.406250 Z-0.125000
G01 X121.355470 Y21.578125 Z-0.125000
G01 X121.214840 Y21.816406 Z-0.125000
G00 Z5.000000

(End cutting path id: path7324)


(Start cutting path id: path7322)
(Change tool to Default tool)

G00 Z5.000000
G00 X121.355470 Y21.578125

G01 Z-0.125000 F100.0(Penetrate)
G01 X120.595700 Y20.406250 Z-0.125000 F400.000000
G01 X121.423830 Y19.730469 Z-0.125000
G01 X121.806640 Y20.044922 Z-0.125000
G01 X121.779340 Y20.861328 Z-0.125000
G01 X121.355470 Y21.578125 Z-0.125000
G00 Z5.000000

(End cutting path id: path7322)


(Start cutting path id: path7320)
(Change tool to Default tool)

G00 Z5.000000
G00 X121.779300 Y20.861328

G01 Z-0.125000 F100.0(Penetrate)
G01 X121.806600 Y20.044922 Z-0.125000 F400.000000
G01 X122.210900 Y20.136722 Z-0.125000
G01 X121.779300 Y20.861328 Z-0.125000
G00 Z5.000000

(End cutting path id: path7320)


(Start cutting path id: path7318)
(Change tool to Default tool)

G00 Z5.000000
G00 X122.210940 Y20.136719

G01 Z-0.125000 F100.0(Penetrate)
G01 X121.806640 Y20.044919 Z-0.125000 F400.000000
G01 X121.423830 Y19.730466 Z-0.125000
G01 X121.330130 Y18.847653 Z-0.125000
G01 X121.431690 Y18.785153 Z-0.125000
G01 X122.908250 Y18.357419 Z-0.125000
G01 X123.168020 Y18.521481 Z-0.125000
G01 X122.210940 Y20.136719 Z-0.125000
G00 Z5.000000

(End cutting path id: path7318)


(Start cutting path id: path7316)
(Change tool to Default tool)

G00 Z5.000000
G00 X123.167970 Y18.521484

G01 Z-0.125000 F100.0(Penetrate)
G01 X122.908200 Y18.357422 Z-0.125000 F400.000000
G01 X122.968800 Y16.371094 Z-0.125000
G01 X123.093800 Y16.347654 Z-0.125000
G01 X123.953170 Y17.199217 Z-0.125000
G01 X123.167970 Y18.521484 Z-0.125000
G00 Z5.000000

(End cutting path id: path7316)


(Start cutting path id: path7314)
(Change tool to Default tool)

G00 Z5.000000
G00 X123.953120 Y17.199219

G01 Z-0.125000 F100.0(Penetrate)
G01 X123.093750 Y16.347656 Z-0.125000 F400.000000
G01 X124.250000 Y15.640625 Z-0.125000
G01 X124.753910 Y15.847656 Z-0.125000
G01 X123.953120 Y17.199219 Z-0.125000
G00 Z5.000000

(End cutting path id: path7314)


(Start cutting path id: path7312)
(Change tool to Default tool)

G00 Z5.000000
G00 X124.753910 Y15.847656

G01 Z-0.125000 F100.0(Penetrate)
G01 X124.250000 Y15.640625 Z-0.125000 F400.000000
G01 X124.250000 Y13.912109 Z-0.125000
G01 X124.488280 Y13.708984 Z-0.125000
G01 X126.085940 Y13.601562 Z-0.125000
G01 X124.753910 Y15.847656 Z-0.125000
G00 Z5.000000

(End cutting path id: path7312)


(Start cutting path id: path7310)
(Change tool to Default tool)

G00 Z5.000000
G00 X126.085940 Y13.601562

G01 Z-0.125000 F100.0(Penetrate)
G01 X124.488280 Y13.708984 Z-0.125000 F400.000000
G01 X124.318360 Y12.625000 Z-0.125000
G01 X124.875000 Y11.835938 Z-0.125000
G01 X126.626950 Y12.130859 Z-0.125000
G01 X126.521480 Y12.869141 Z-0.125000
G01 X126.085940 Y13.601562 Z-0.125000
G00 Z5.000000

(End cutting path id: path7310)


(Start cutting path id: path7308)
(Change tool to Default tool)

G00 Z5.000000
G00 X126.521480 Y12.869141

G01 Z-0.125000 F100.0(Penetrate)
G01 X126.626950 Y12.130859 Z-0.125000 F400.000000
G01 X126.804690 Y11.822266 Z-0.125000
G01 X126.818390 Y11.806636 Z-0.125000
G01 X126.826390 Y11.804636 Z-0.125000
G01 X127.054910 Y11.966745 Z-0.125000
G01 X126.521480 Y12.869141 Z-0.125000
G00 Z5.000000

(End cutting path id: path7308)


(Start cutting path id: path7306)
(Change tool to Default tool)

G00 Z5.000000
G00 X127.054690 Y11.966797

G01 Z-0.125000 F100.0(Penetrate)
G01 X126.826170 Y11.804688 Z-0.125000 F400.000000
G01 X127.281250 Y11.587891 Z-0.125000
G01 X127.054690 Y11.966797 Z-0.125000
G00 Z5.000000

(End cutting path id: path7306)


(Start cutting path id: path7304)
(Change tool to Default tool)

G00 Z5.000000
G00 X127.281250 Y11.587891

G01 Z-0.125000 F100.0(Penetrate)
G01 X126.826170 Y11.804688 Z-0.125000 F400.000000
G01 X126.818170 Y11.806688 Z-0.125000
G01 X126.113090 Y9.675828 Z-0.125000
G01 X127.113090 Y7.697313 Z-0.125000
G01 X128.224420 Y8.111375 Z-0.125000
G01 X128.085750 Y10.228563 Z-0.125000
G01 X127.281250 Y11.587891 Z-0.125000
G00 Z5.000000

(End cutting path id: path7304)


(Start cutting path id: path7302)
(Change tool to Default tool)

G00 Z5.000000
G00 X128.085940 Y10.228516

G01 Z-0.125000 F100.0(Penetrate)
G01 X128.224610 Y8.111328 Z-0.125000 F400.000000
G01 X128.328120 Y8.107428 Z-0.125000
G01 X128.994140 Y8.697272 Z-0.125000
G01 X128.085940 Y10.228516 Z-0.125000
G00 Z5.000000

(End cutting path id: path7302)


(Start cutting path id: path7300)
(Change tool to Default tool)

G00 Z5.000000
G00 X128.994140 Y8.697266

G01 Z-0.125000 F100.0(Penetrate)
G01 X128.328120 Y8.107422 Z-0.125000 F400.000000
G01 X128.974610 Y7.669922 Z-0.125000
G01 X129.691410 Y7.521484 Z-0.125000
G01 X128.994140 Y8.697266 Z-0.125000
G00 Z5.000000

(End cutting path id: path7300)


(Start cutting path id: path7298)
(Change tool to Default tool)

G00 Z5.000000
G00 X129.691410 Y7.521484

G01 Z-0.125000 F100.0(Penetrate)
G01 X128.974610 Y7.669922 Z-0.125000 F400.000000
G01 X129.910160 Y4.779297 Z-0.125000
G01 X130.560550 Y3.458984 Z-0.125000
G01 X130.664060 Y3.458984 Z-0.125000
G01 X131.789060 Y3.984375 Z-0.125000
G01 X129.691410 Y7.521484 Z-0.125000
G00 Z5.000000

(End cutting path id: path7298)


(Start cutting path id: path7296)
(Change tool to Default tool)

G00 Z5.000000
G00 X131.789060 Y3.984375

G01 Z-0.125000 F100.0(Penetrate)
G01 X130.664060 Y3.458984 Z-0.125000 F400.000000
G01 X131.269530 Y1.333984 Z-0.125000
G01 X133.185550 Y0.009766 Z-0.125000
G01 X134.146480 Y0.009766 Z-0.125000
G01 X131.789060 Y3.984375 Z-0.125000
G00 Z5.000000

(End cutting path id: path7296)


(Start cutting path id: path7294)
(Change tool to Default tool)

G00 Z5.000000
G00 X133.185550 Y0.009766

G01 Z-0.125000 F100.0(Penetrate)
G01 X131.269530 Y1.333984 Z-0.125000 F400.000000
G01 X130.781250 Y0.007812 Z-0.125000
G01 X133.185550 Y0.009766 Z-0.125000
G00 Z5.000000

(End cutting path id: path7294)


(Start cutting path id: path7292)
(Change tool to Default tool)

G00 Z5.000000
G00 X130.781250 Y0.007812

G01 Z-0.125000 F100.0(Penetrate)
G01 X131.269530 Y1.333984 Z-0.125000 F400.000000
G01 X130.664060 Y3.458984 Z-0.125000
G01 X130.560550 Y3.458984 Z-0.125000
G01 X130.412110 Y3.408204 Z-0.125000
G01 X128.625000 Y0.007813 Z-0.125000
G01 X130.781250 Y0.007812 Z-0.125000
G00 Z5.000000

(End cutting path id: path7292)


(Start cutting path id: path7290)
(Change tool to Default tool)

G00 Z5.000000
G00 X128.625000 Y0.007812

G01 Z-0.125000 F100.0(Penetrate)
G01 X130.412110 Y3.408203 Z-0.125000 F400.000000
G01 X129.763670 Y3.458983 Z-0.125000
G01 X127.806640 Y2.621093 Z-0.125000
G01 X127.150390 Y1.222655 Z-0.125000
G01 X128.378910 Y0.007811 Z-0.125000
G01 X128.625000 Y0.007812 Z-0.125000
G00 Z5.000000

(End cutting path id: path7290)


(Start cutting path id: path7288)
(Change tool to Default tool)

G00 Z5.000000
G00 X128.378910 Y0.007812

G01 Z-0.125000 F100.0(Penetrate)
G01 X127.150390 Y1.222656 Z-0.125000 F400.000000
G01 X126.941410 Y1.236326 Z-0.125000
G01 X124.779300 Y0.005857 Z-0.125000
G01 X128.378910 Y0.007812 Z-0.125000
G00 Z5.000000

(End cutting path id: path7288)


(Start cutting path id: path7286)
(Change tool to Default tool)

G00 Z5.000000
G00 X124.779300 Y0.005859

G01 Z-0.125000 F100.0(Penetrate)
G01 X126.941410 Y1.236328 Z-0.125000 F400.000000
G01 X125.490230 Y2.974609 Z-0.125000
G01 X123.873050 Y0.482422 Z-0.125000
G01 X123.796850 Y0.005859 Z-0.125000
G01 X124.779300 Y0.005859 Z-0.125000
G00 Z5.000000

(End cutting path id: path7286)


(Start cutting path id: path7284)
(Change tool to Default tool)

G00 Z5.000000
G00 X123.796880 Y0.005859

G01 Z-0.125000 F100.0(Penetrate)
G01 X123.873080 Y0.482422 Z-0.125000 F400.000000
G01 X122.943390 Y3.341797 Z-0.125000
G01 X120.781280 Y3.199219 Z-0.125000
G01 X120.343780 Y2.986328 Z-0.125000
G01 X123.423860 Y0.005859 Z-0.125000
G01 X123.796880 Y0.005859 Z-0.125000
G00 Z5.000000

(End cutting path id: path7284)


(Start cutting path id: path7282)
(Change tool to Default tool)

G00 Z5.000000
G00 X123.423830 Y0.005859

G01 Z-0.125000 F100.0(Penetrate)
G01 X120.343750 Y2.986328 Z-0.125000 F400.000000
G01 X120.144530 Y2.970698 Z-0.125000
G01 X118.964840 Y0.650386 Z-0.125000
G01 X118.724610 Y0.003901 Z-0.125000
G01 X123.423830 Y0.005859 Z-0.125000
G00 Z5.000000

(End cutting path id: path7282)


(Start cutting path id: path7280)
(Change tool to Default tool)

G00 Z5.000000
G00 X118.724610 Y0.003906

G01 Z-0.125000 F100.0(Penetrate)
G01 X118.964840 Y0.650391 Z-0.125000 F400.000000
G01 X116.595700 Y4.048828 Z-0.125000
G01 X115.750000 Y0.001953 Z-0.125000
G01 X118.724610 Y0.003906 Z-0.125000
G00 Z5.000000

(End cutting path id: path7280)


(Start cutting path id: path7278)
(Change tool to Default tool)

G00 Z5.000000
G00 X115.750000 Y0.001953

G01 Z-0.125000 F100.0(Penetrate)
G01 X116.595700 Y4.048828 Z-0.125000 F400.000000
G01 X116.597700 Y4.085938 Z-0.125000
G01 X114.699260 Y4.601562 Z-0.125000
G01 X113.644570 Y2.857422 Z-0.125000
G01 X115.185590 Y0.001953 Z-0.125000
G01 X115.750000 Y0.001953 Z-0.125000
G00 Z5.000000

(End cutting path id: path7278)


(Start cutting path id: path7276)
(Change tool to Default tool)

G00 Z5.000000
G00 X115.185550 Y0.001953

G01 Z-0.125000 F100.0(Penetrate)
G01 X113.644530 Y2.857422 Z-0.125000 F400.000000
G01 X112.923830 Y2.894532 Z-0.125000
G01 X111.673830 Y0.613282 Z-0.125000
G01 X111.968750 Y0.000000 Z-0.125000
G01 X115.185550 Y0.001953 Z-0.125000
G00 Z5.000000

(End cutting path id: path7276)


(Start cutting path id: path7274)
(Change tool to Default tool)

G00 Z5.000000
G00 X111.968750 Y0.000000

G01 Z-0.125000 F100.0(Penetrate)
G01 X111.673830 Y0.613281 Z-0.125000 F400.000000
G01 X110.955080 Y1.304688 Z-0.125000
G01 X111.650390 Y0.000000 Z-0.125000
G01 X111.968750 Y0.000000 Z-0.125000
G00 Z5.000000

(End cutting path id: path7274)


(Start cutting path id: path7272)
(Change tool to Default tool)

G00 Z5.000000
G00 X110.955080 Y1.304688

G01 Z-0.125000 F100.0(Penetrate)
G01 X111.673830 Y0.613281 Z-0.125000 F400.000000
G01 X112.923830 Y2.894531 Z-0.125000
G01 X112.113280 Y3.298828 Z-0.125000
G01 X110.539060 Y2.087891 Z-0.125000
G01 X110.955080 Y1.304688 Z-0.125000
G00 Z5.000000

(End cutting path id: path7272)


(Start cutting path id: path7270)
(Change tool to Default tool)

G00 Z5.000000
G00 X110.539060 Y2.087891

G01 Z-0.125000 F100.0(Penetrate)
G01 X112.113280 Y3.298828 Z-0.125000 F400.000000
G01 X111.880860 Y3.880859 Z-0.125000
G01 X109.744140 Y4.115234 Z-0.125000
G01 X109.572270 Y3.902344 Z-0.125000
G01 X110.539060 Y2.087891 Z-0.125000
G00 Z5.000000

(End cutting path id: path7270)


(Start cutting path id: path7268)
(Change tool to Default tool)

G00 Z5.000000
G00 X109.572270 Y3.902344

G01 Z-0.125000 F100.0(Penetrate)
G01 X109.744140 Y4.115234 Z-0.125000 F400.000000
G01 X109.955080 Y5.062500 Z-0.125000
G01 X108.898440 Y5.550781 Z-0.125000
G01 X108.656250 Y5.621091 Z-0.125000
G01 X109.572270 Y3.902344 Z-0.125000
G00 Z5.000000

(End cutting path id: path7268)


(Start cutting path id: path7266)
(Change tool to Default tool)

G00 Z5.000000
G00 X108.656250 Y5.621094

G01 Z-0.125000 F100.0(Penetrate)
G01 X108.898440 Y5.550784 Z-0.125000 F400.000000
G01 X109.238280 Y6.183597 Z-0.125000
G01 X108.857420 Y6.650394 Z-0.125000
G01 X108.447270 Y6.013675 Z-0.125000
G01 X108.656250 Y5.621094 Z-0.125000
G00 Z5.000000

(End cutting path id: path7266)


(Start cutting path id: path7264)
(Change tool to Default tool)

G00 Z5.000000
G00 X108.447270 Y6.013672

G01 Z-0.125000 F100.0(Penetrate)
G01 X108.857420 Y6.650391 Z-0.125000 F400.000000
G01 X108.984380 Y7.259766 Z-0.125000
G01 X107.703120 Y7.412109 Z-0.125000
G01 X108.447270 Y6.013672 Z-0.125000
G00 Z5.000000

(End cutting path id: path7264)


(Start cutting path id: path7262)
(Change tool to Default tool)

G00 Z5.000000
G00 X107.703120 Y7.412109

G01 Z-0.125000 F100.0(Penetrate)
G01 X108.984380 Y7.259766 Z-0.125000 F400.000000
G01 X110.369140 Y8.087891 Z-0.125000
G01 X110.015620 Y9.224609 Z-0.125000
G01 X107.457030 Y9.396484 Z-0.125000
G01 X107.617190 Y7.572266 Z-0.125000
G01 X107.703120 Y7.412109 Z-0.125000
G00 Z5.000000

(End cutting path id: path7262)


(Start cutting path id: path7260)
(Change tool to Default tool)

G00 Z5.000000
G00 X107.617190 Y7.572266

G01 Z-0.125000 F100.0(Penetrate)
G01 X107.457030 Y9.396484 Z-0.125000 F400.000000
G01 X106.839840 Y9.816406 Z-0.125000
G01 X106.523440 Y9.841796 Z-0.125000
G01 X106.466840 Y9.732421 Z-0.125000
G01 X107.617190 Y7.572266 Z-0.125000
G00 Z5.000000

(End cutting path id: path7260)


(Start cutting path id: path7258)
(Change tool to Default tool)

G00 Z5.000000
G00 X106.466800 Y9.732422

G01 Z-0.125000 F100.0(Penetrate)
G01 X106.523400 Y9.841797 Z-0.125000 F400.000000
G01 X106.320270 Y10.009766 Z-0.125000
G01 X106.466800 Y9.732422 Z-0.125000
G00 Z5.000000

(End cutting path id: path7258)


(Start cutting path id: path7256)
(Change tool to Default tool)

G00 Z5.000000
G00 X106.320310 Y10.009766

G01 Z-0.125000 F100.0(Penetrate)
G01 X106.523440 Y9.841797 Z-0.125000 F400.000000
G01 X106.839840 Y9.816407 Z-0.125000
G01 X107.777340 Y11.078126 Z-0.125000
G01 X106.708980 Y12.412110 Z-0.125000
G01 X105.539060 Y12.488280 Z-0.125000
G01 X105.113280 Y12.275390 Z-0.125000
G01 X106.320310 Y10.009766 Z-0.125000
G00 Z5.000000

(End cutting path id: path7256)


(Start cutting path id: path7254)
(Change tool to Default tool)

G00 Z5.000000
G00 X105.113280 Y12.275391

G01 Z-0.125000 F100.0(Penetrate)
G01 X105.539060 Y12.488281 Z-0.125000 F400.000000
G01 X107.238280 Y14.628906 Z-0.125000
G01 X107.054690 Y14.906250 Z-0.125000
G01 X107.005890 Y14.964840 Z-0.125000
G01 X105.753940 Y15.404293 Z-0.125000
G01 X104.746120 Y15.003902 Z-0.125000
G01 X104.103550 Y14.169918 Z-0.125000
G01 X105.113280 Y12.275391 Z-0.125000
G00 Z5.000000

(End cutting path id: path7254)


(Start cutting path id: path7252)
(Change tool to Default tool)

G00 Z5.000000
G00 X104.103520 Y14.169922

G01 Z-0.125000 F100.0(Penetrate)
G01 X104.746090 Y15.003906 Z-0.125000 F400.000000
G01 X103.953120 Y17.003906 Z-0.125000
G01 X103.406250 Y17.345703 Z-0.125000
G01 X102.701170 Y16.802734 Z-0.125000
G01 X104.103520 Y14.169922 Z-0.125000
G00 Z5.000000

(End cutting path id: path7252)


(Start cutting path id: path7250)
(Change tool to Default tool)

G00 Z5.000000
G00 X102.701170 Y16.802734

G01 Z-0.125000 F100.0(Penetrate)
G01 X103.406250 Y17.345703 Z-0.125000 F400.000000
G01 X103.466850 Y17.992188 Z-0.125000
G01 X102.644580 Y18.687500 Z-0.125000
G01 X101.718800 Y18.650390 Z-0.125000
G01 X102.701170 Y16.802734 Z-0.125000
G00 Z5.000000

(End cutting path id: path7250)


(Start cutting path id: path7248)
(Change tool to Default tool)

G00 Z5.000000
G00 X101.718750 Y18.650391

G01 Z-0.125000 F100.0(Penetrate)
G01 X102.644530 Y18.687501 Z-0.125000 F400.000000
G01 X102.470700 Y20.228517 Z-0.125000
G01 X102.392600 Y20.484376 Z-0.125000
G01 X101.826170 Y21.000000 Z-0.125000
G01 X101.337890 Y21.058590 Z-0.125000
G01 X100.847660 Y20.261715 Z-0.125000
G01 X101.023440 Y19.925777 Z-0.125000
G01 X101.128910 Y19.755855 Z-0.125000
G01 X101.718750 Y18.650391 Z-0.125000
G00 Z5.000000

(End cutting path id: path7248)


(Start cutting path id: path7246)
(Change tool to Default tool)

G00 Z5.000000
G00 X101.023440 Y19.925781

G01 Z-0.125000 F100.0(Penetrate)
G01 X100.847660 Y20.261719 Z-0.125000 F400.000000
G01 X100.824260 Y20.244139 Z-0.125000
G01 X101.023440 Y19.925781 Z-0.125000
G00 Z5.000000

(End cutting path id: path7246)


(Start cutting path id: path7244)
(Change tool to Default tool)

G00 Z5.000000
G00 X100.824220 Y20.244141

G01 Z-0.125000 F100.0(Penetrate)
G01 X100.847620 Y20.261721 Z-0.125000 F400.000000
G01 X101.337850 Y21.058596 Z-0.125000
G01 X100.671840 Y22.105471 Z-0.125000
G01 X99.548788 Y22.162111 Z-0.125000
G01 X100.824220 Y20.244141 Z-0.125000
G00 Z5.000000

(End cutting path id: path7244)


(Start cutting path id: path7242)
(Change tool to Default tool)

G00 Z5.000000
G00 X99.548828 Y22.162109

G01 Z-0.125000 F100.0(Penetrate)
G01 X100.671880 Y22.105469 Z-0.125000 F400.000000
G01 X101.296880 Y24.001953 Z-0.125000
G01 X100.300780 Y25.121094 Z-0.125000
G01 X99.222656 Y24.738281 Z-0.125000
G01 X98.265625 Y23.763672 Z-0.125000
G01 X99.548828 Y22.162109 Z-0.125000
G00 Z5.000000

(End cutting path id: path7242)


(Start cutting path id: path7240)
(Change tool to Default tool)

G00 Z5.000000
G00 X98.265625 Y23.763672

G01 Z-0.125000 F100.0(Penetrate)
G01 X99.222656 Y24.738281 Z-0.125000 F400.000000
G01 X97.115234 Y26.728516 Z-0.125000
G01 X96.652344 Y25.232422 Z-0.125000
G01 X97.650391 Y24.531250 Z-0.125000
G01 X98.265625 Y23.763672 Z-0.125000
G00 Z5.000000

(End cutting path id: path7240)


(Start cutting path id: path7238)
(Change tool to Default tool)

G00 Z5.000000
G00 X96.652344 Y25.232422

G01 Z-0.125000 F100.0(Penetrate)
G01 X97.115234 Y26.728516 Z-0.125000 F400.000000
G01 X97.103514 Y27.779297 Z-0.125000
G01 X97.083984 Y27.798827 Z-0.125000
G01 X96.789062 Y27.863277 Z-0.125000
G01 X94.056641 Y25.763668 Z-0.125000
G01 X94.056641 Y25.744138 Z-0.125000
G01 X94.978516 Y25.744138 Z-0.125000
G01 X96.652344 Y25.232422 Z-0.125000
G00 Z5.000000

(End cutting path id: path7238)


(Start cutting path id: path7236)
(Change tool to Default tool)

G00 Z5.000000
G00 X94.056641 Y25.744141

G01 Z-0.125000 F100.0(Penetrate)
G01 X94.056641 Y25.763671 Z-0.125000 F400.000000
G01 X93.591797 Y26.453124 Z-0.125000
G01 X92.025391 Y28.171874 Z-0.125000
G01 X91.677734 Y27.955077 Z-0.125000
G01 X91.015625 Y27.271483 Z-0.125000
G01 X90.931645 Y25.744140 Z-0.125000
G01 X94.056641 Y25.744141 Z-0.125000
G00 Z5.000000

(End cutting path id: path7236)


(Start cutting path id: path7234)
(Change tool to Default tool)

G00 Z5.000000
G00 X90.931641 Y25.744141

G01 Z-0.125000 F100.0(Penetrate)
G01 X91.015621 Y27.271484 Z-0.125000 F400.000000
G01 X87.919918 Y27.541016 Z-0.125000
G01 X87.818355 Y25.029297 Z-0.125000
G01 X88.533199 Y24.109375 Z-0.125000
G01 X89.632808 Y24.546875 Z-0.125000
G01 X89.632808 Y25.744141 Z-0.125000
G01 X90.931641 Y25.744141 Z-0.125000
G00 Z5.000000

(End cutting path id: path7234)


(Start cutting path id: path7232)
(Change tool to Default tool)

G00 Z5.000000
G00 X89.632812 Y24.546875

G01 Z-0.125000 F100.0(Penetrate)
G01 X88.533203 Y24.109375 Z-0.125000 F400.000000
G01 X88.492183 Y23.861328 Z-0.125000
G01 X88.597651 Y21.933594 Z-0.125000
G01 X88.927729 Y20.865234 Z-0.125000
G01 X89.066401 Y20.857434 Z-0.125000
G01 X89.634761 Y21.226574 Z-0.125000
G01 X89.632812 Y24.546875 Z-0.125000
G00 Z5.000000

(End cutting path id: path7232)


(Start cutting path id: path7230)
(Change tool to Default tool)

G00 Z5.000000
G00 X89.634766 Y21.226562

G01 Z-0.125000 F100.0(Penetrate)
G01 X89.066406 Y20.857422 Z-0.125000 F400.000000
G01 X89.634766 Y20.500000 Z-0.125000
G01 X89.634766 Y21.226562 Z-0.125000
G00 Z5.000000

(End cutting path id: path7230)


(Start cutting path id: path7228)
(Change tool to Default tool)

G00 Z5.000000
G00 X89.634766 Y20.500000

G01 Z-0.125000 F100.0(Penetrate)
G01 X89.066406 Y20.857422 Z-0.125000 F400.000000
G01 X88.927734 Y20.865222 Z-0.125000
G01 X87.890625 Y19.841785 Z-0.125000
G01 X87.853515 Y19.777335 Z-0.125000
G01 X87.871095 Y19.216788 Z-0.125000
G01 X89.423829 Y17.554679 Z-0.125000
G01 X89.634767 Y17.447257 Z-0.125000
G01 X89.634766 Y20.500000 Z-0.125000
G00 Z5.000000

(End cutting path id: path7228)


(Start cutting path id: path7226)
(Change tool to Default tool)

G00 Z5.000000
G00 X89.634766 Y17.447266

G01 Z-0.125000 F100.0(Penetrate)
G01 X89.423828 Y17.554688 Z-0.125000 F400.000000
G01 X88.390625 Y16.087891 Z-0.125000
G01 X89.634766 Y15.523438 Z-0.125000
G01 X89.634766 Y17.447266 Z-0.125000
G00 Z5.000000

(End cutting path id: path7226)


(Start cutting path id: path7224)
(Change tool to Default tool)

G00 Z5.000000
G00 X89.634766 Y15.523438

G01 Z-0.125000 F100.0(Penetrate)
G01 X88.390625 Y16.087891 Z-0.125000 F400.000000
G01 X87.646484 Y16.115231 Z-0.125000
G01 X87.632814 Y14.585935 Z-0.125000
G01 X88.087893 Y13.693356 Z-0.125000
G01 X88.458986 Y13.359372 Z-0.125000
G01 X88.695314 Y13.248044 Z-0.125000
G01 X89.634768 Y13.744138 Z-0.125000
G01 X89.634766 Y15.523438 Z-0.125000
G00 Z5.000000

(End cutting path id: path7224)


(Start cutting path id: path7222)
(Change tool to Default tool)

G00 Z5.000000
G00 X89.634766 Y13.744141

G01 Z-0.125000 F100.0(Penetrate)
G01 X88.695312 Y13.248047 Z-0.125000 F400.000000
G01 X88.666012 Y12.609375 Z-0.125000
G01 X89.636715 Y11.617188 Z-0.125000
G01 X89.634766 Y13.744141 Z-0.125000
G00 Z5.000000

(End cutting path id: path7222)


(Start cutting path id: path7220)
(Change tool to Default tool)

G00 Z5.000000
G00 X89.636719 Y11.617188

G01 Z-0.125000 F100.0(Penetrate)
G01 X88.666016 Y12.609375 Z-0.125000 F400.000000
G01 X88.402344 Y12.095703 Z-0.125000
G01 X88.257812 Y11.675781 Z-0.125000
G01 X88.388672 Y10.136719 Z-0.125000
G01 X88.789062 Y9.791016 Z-0.125000
G01 X89.351562 Y9.898438 Z-0.125000
G01 X89.636719 Y10.482422 Z-0.125000
G01 X89.636719 Y11.617188 Z-0.125000
G00 Z5.000000

(End cutting path id: path7220)


(Start cutting path id: path7218)
(Change tool to Default tool)

G00 Z5.000000
G00 X89.636719 Y10.482422

G01 Z-0.125000 F100.0(Penetrate)
G01 X89.351562 Y9.898438 Z-0.125000 F400.000000
G01 X89.636719 Y9.787109 Z-0.125000
G01 X89.636719 Y10.482422 Z-0.125000
G00 Z5.000000

(End cutting path id: path7218)


(Start cutting path id: path7216)
(Change tool to Default tool)

G00 Z5.000000
G00 X89.636719 Y9.787109

G01 Z-0.125000 F100.0(Penetrate)
G01 X89.351562 Y9.898438 Z-0.125000 F400.000000
G01 X88.789062 Y9.791016 Z-0.125000
G01 X88.437500 Y7.966797 Z-0.125000
G01 X88.646484 Y7.753906 Z-0.125000
G01 X88.738284 Y7.724606 Z-0.125000
G01 X89.636722 Y8.167966 Z-0.125000
G01 X89.636719 Y9.787109 Z-0.125000
G00 Z5.000000

(End cutting path id: path7216)


(Start cutting path id: path7214)
(Change tool to Default tool)

G00 Z5.000000
G00 X89.636719 Y8.167969

G01 Z-0.125000 F100.0(Penetrate)
G01 X88.738281 Y7.724609 Z-0.125000 F400.000000
G01 X89.636719 Y7.007812 Z-0.125000
G01 X89.636719 Y8.167969 Z-0.125000
G00 Z5.000000

(End cutting path id: path7214)


(Start cutting path id: path7212)
(Change tool to Default tool)

G00 Z5.000000
G00 X89.636719 Y7.007812

G01 Z-0.125000 F100.0(Penetrate)
G01 X88.738281 Y7.724609 Z-0.125000 F400.000000
G01 X88.646481 Y7.753909 Z-0.125000
G01 X88.089841 Y5.953128 Z-0.125000
G01 X88.630856 Y5.263675 Z-0.125000
G01 X89.636716 Y5.400394 Z-0.125000
G01 X89.636719 Y7.007812 Z-0.125000
G00 Z5.000000

(End cutting path id: path7212)


(Start cutting path id: path7210)
(Change tool to Default tool)

G00 Z5.000000
G00 X89.636719 Y5.400391

G01 Z-0.125000 F100.0(Penetrate)
G01 X88.630859 Y5.263672 Z-0.125000 F400.000000
G01 X88.392578 Y4.806641 Z-0.125000
G01 X88.857422 Y3.845703 Z-0.125000
G01 X89.638672 Y3.421875 Z-0.125000
G01 X89.636719 Y5.400391 Z-0.125000
G00 Z5.000000

(End cutting path id: path7210)


(Start cutting path id: path7208)
(Change tool to Default tool)

G00 Z5.000000
G00 X89.638672 Y3.421875

G01 Z-0.125000 F100.0(Penetrate)
G01 X88.857422 Y3.845703 Z-0.125000 F400.000000
G01 X87.646484 Y2.964844 Z-0.125000
G01 X88.042969 Y2.859375 Z-0.125000
G01 X89.638672 Y3.109375 Z-0.125000
G01 X89.638672 Y3.421875 Z-0.125000
G00 Z5.000000

(End cutting path id: path7208)


(Start cutting path id: path7206)
(Change tool to Default tool)

G00 Z5.000000
G00 X89.638672 Y3.109375

G01 Z-0.125000 F100.0(Penetrate)
G01 X88.042969 Y2.859375 Z-0.125000 F400.000000
G01 X89.638672 Y1.533203 Z-0.125000
G01 X89.638672 Y3.109375 Z-0.125000
G00 Z5.000000

(End cutting path id: path7206)


(Start cutting path id: path7204)
(Change tool to Default tool)

G00 Z5.000000
G00 X89.638672 Y1.533203

G01 Z-0.125000 F100.0(Penetrate)
G01 X88.042969 Y2.859375 Z-0.125000 F400.000000
G01 X87.646484 Y2.964844 Z-0.125000
G01 X87.511719 Y2.955044 Z-0.125000
G01 X89.457031 Y0.037075 Z-0.125000
G01 X89.638672 Y0.333950 Z-0.125000
G01 X89.638672 Y1.533203 Z-0.125000
G00 Z5.000000

(End cutting path id: path7204)


(Start cutting path id: path7202)
(Change tool to Default tool)

G00 Z5.000000
G00 X89.638672 Y0.333984

G01 Z-0.125000 F100.0(Penetrate)
G01 X89.457031 Y0.037109 Z-0.125000 F400.000000
G01 X89.447231 Y0.013669 Z-0.125000
G01 X89.638637 Y0.013669 Z-0.125000
G01 X89.638672 Y0.333984 Z-0.125000
G00 Z5.000000

(End cutting path id: path7202)


(Start cutting path id: path7200)
(Change tool to Default tool)

G00 Z5.000000
G00 X89.447266 Y0.013672

G01 Z-0.125000 F100.0(Penetrate)
G01 X89.457066 Y0.037112 Z-0.125000 F400.000000
G01 X87.511754 Y2.955081 Z-0.125000
G01 X87.410191 Y2.972661 Z-0.125000
G01 X86.931676 Y1.291021 Z-0.125000
G01 X87.527379 Y0.013677 Z-0.125000
G01 X89.447266 Y0.013672 Z-0.125000
G00 Z5.000000

(End cutting path id: path7200)


(Start cutting path id: path7198)
(Change tool to Default tool)

G00 Z5.000000
G00 X87.527344 Y0.013672

G01 Z-0.125000 F100.0(Penetrate)
G01 X86.931641 Y1.291016 Z-0.125000 F400.000000
G01 X86.322266 Y1.529297 Z-0.125000
G01 X85.929688 Y1.457027 Z-0.125000
G01 X85.433594 Y0.011715 Z-0.125000
G01 X87.527344 Y0.013672 Z-0.125000
G00 Z5.000000

(End cutting path id: path7198)


(Start cutting path id: path7196)
(Change tool to Default tool)

G00 Z5.000000
G00 X85.433594 Y0.011719

G01 Z-0.125000 F100.0(Penetrate)
G01 X85.929688 Y1.457031 Z-0.125000 F400.000000
G01 X85.498047 Y1.484371 Z-0.125000
G01 X84.046875 Y0.011715 Z-0.125000
G01 X85.433594 Y0.011719 Z-0.125000
G00 Z5.000000

(End cutting path id: path7196)


(Start cutting path id: path7194)
(Change tool to Default tool)

G00 Z5.000000
G00 X84.046875 Y0.011719

G01 Z-0.125000 F100.0(Penetrate)
G01 X85.498047 Y1.484375 Z-0.125000 F400.000000
G01 X85.080078 Y2.343750 Z-0.125000
G01 X84.597656 Y2.501953 Z-0.125000
G01 X84.171875 Y2.251953 Z-0.125000
G01 X83.310547 Y1.677734 Z-0.125000
G01 X83.431641 Y1.140625 Z-0.125000
G01 X83.976562 Y0.011719 Z-0.125000
G01 X84.046875 Y0.011719 Z-0.125000
G00 Z5.000000

(End cutting path id: path7194)


(Start cutting path id: path7192)
(Change tool to Default tool)

G00 Z5.000000
G00 X83.976562 Y0.011719

G01 Z-0.125000 F100.0(Penetrate)
G01 X83.431641 Y1.140625 Z-0.125000 F400.000000
G01 X80.619141 Y0.009766 Z-0.125000
G01 X83.976562 Y0.011719 Z-0.125000
G00 Z5.000000

(End cutting path id: path7192)


(Start cutting path id: path7190)
(Change tool to Default tool)

G00 Z5.000000
G00 X80.619141 Y0.009766

G01 Z-0.125000 F100.0(Penetrate)
G01 X83.431641 Y1.140625 Z-0.125000 F400.000000
G01 X83.310547 Y1.677734 Z-0.125000
G01 X82.396484 Y2.486328 Z-0.125000
G01 X81.925781 Y2.343750 Z-0.125000
G01 X81.011719 Y1.259766 Z-0.125000
G01 X80.466797 Y0.009766 Z-0.125000
G01 X80.619141 Y0.009766 Z-0.125000
G00 Z5.000000

(End cutting path id: path7190)


(Start cutting path id: path7188)
(Change tool to Default tool)

G00 Z5.000000
G00 X80.466797 Y0.009766

G01 Z-0.125000 F100.0(Penetrate)
G01 X81.011719 Y1.259766 Z-0.125000 F400.000000
G01 X80.033203 Y2.035156 Z-0.125000
G01 X79.503906 Y0.009766 Z-0.125000
G01 X80.466797 Y0.009766 Z-0.125000
G00 Z5.000000

(End cutting path id: path7188)


(Start cutting path id: path7186)
(Change tool to Default tool)

G00 Z5.000000
G00 X79.503906 Y0.009766

G01 Z-0.125000 F100.0(Penetrate)
G01 X80.033203 Y2.035156 Z-0.125000 F400.000000
G01 X79.832031 Y2.744141 Z-0.125000
G01 X78.957031 Y3.320312 Z-0.125000
G01 X77.513672 Y1.136719 Z-0.125000
G01 X77.296875 Y0.009766 Z-0.125000
G01 X79.503906 Y0.009766 Z-0.125000
G00 Z5.000000

(End cutting path id: path7186)


(Start cutting path id: path7184)
(Change tool to Default tool)

G00 Z5.000000
G00 X77.296875 Y0.009766

G01 Z-0.125000 F100.0(Penetrate)
G01 X77.513672 Y1.136719 Z-0.125000 F400.000000
G01 X76.089844 Y3.574219 Z-0.125000
G01 X74.998047 Y3.265625 Z-0.125000
G01 X74.904297 Y3.115234 Z-0.125000
G01 X75.751953 Y0.269531 Z-0.125000
G01 X75.892578 Y0.007812 Z-0.125000
G01 X77.296875 Y0.009766 Z-0.125000
G00 Z5.000000

(End cutting path id: path7184)


(Start cutting path id: path7182)
(Change tool to Default tool)

G00 Z5.000000
G00 X75.892578 Y0.007812

G01 Z-0.125000 F100.0(Penetrate)
G01 X75.751953 Y0.269531 Z-0.125000 F400.000000
G01 X73.531250 Y2.548828 Z-0.125000
G01 X71.982422 Y2.572268 Z-0.125000
G01 X71.857422 Y2.503908 Z-0.125000
G01 X69.730469 Y0.062502 Z-0.125000
G01 X69.730469 Y0.005862 Z-0.125000
G01 X75.892578 Y0.007812 Z-0.125000
G00 Z5.000000

(End cutting path id: path7182)


(Start cutting path id: path7180)
(Change tool to Default tool)

G00 Z5.000000
G00 X69.730469 Y0.062500

G01 Z-0.125000 F100.0(Penetrate)
G01 X71.857422 Y2.503906 Z-0.125000 F400.000000
G01 X71.152344 Y5.361328 Z-0.125000
G01 X69.730469 Y4.593750 Z-0.125000
G01 X69.730469 Y0.062500 Z-0.125000
G00 Z5.000000

(End cutting path id: path7180)


(Start cutting path id: path7178)
(Change tool to Default tool)

G00 Z5.000000
G00 X69.730469 Y4.593750

G01 Z-0.125000 F100.0(Penetrate)
G01 X71.152344 Y5.361328 Z-0.125000 F400.000000
G01 X71.232424 Y5.623047 Z-0.125000
G01 X71.136724 Y6.011719 Z-0.125000
G01 X70.962896 Y6.574219 Z-0.125000
G01 X69.730474 Y6.474609 Z-0.125000
G01 X69.730469 Y4.593750 Z-0.125000
G00 Z5.000000

(End cutting path id: path7178)


(Start cutting path id: path7176)
(Change tool to Default tool)

G00 Z5.000000
G00 X69.730469 Y6.474609

G01 Z-0.125000 F100.0(Penetrate)
G01 X70.962891 Y6.574219 Z-0.125000 F400.000000
G01 X71.943359 Y8.246094 Z-0.125000
G01 X71.746094 Y9.335938 Z-0.125000
G01 X69.730469 Y9.613281 Z-0.125000
G01 X69.730469 Y6.474609 Z-0.125000
G00 Z5.000000

(End cutting path id: path7176)


(Start cutting path id: path7174)
(Change tool to Default tool)

G00 Z5.000000
G00 X69.730469 Y9.613281

G01 Z-0.125000 F100.0(Penetrate)
G01 X71.746094 Y9.335938 Z-0.125000 F400.000000
G01 X72.476562 Y10.179688 Z-0.125000
G01 X72.470662 Y10.841797 Z-0.125000
G01 X69.837850 Y12.603516 Z-0.125000
G01 X69.730428 Y12.582036 Z-0.125000
G01 X69.730469 Y9.613281 Z-0.125000
G00 Z5.000000

(End cutting path id: path7174)


(Start cutting path id: path7172)
(Change tool to Default tool)

G00 Z5.000000
G00 X69.730469 Y12.582031

G01 Z-0.125000 F100.0(Penetrate)
G01 X69.837891 Y12.603511 Z-0.125000 F400.000000
G01 X71.753906 Y14.123042 Z-0.125000
G01 X71.408203 Y15.835933 Z-0.125000
G01 X71.296875 Y15.933593 Z-0.125000
G01 X69.730469 Y16.083983 Z-0.125000
G01 X69.730469 Y12.582031 Z-0.125000
G00 Z5.000000

(End cutting path id: path7172)


(Start cutting path id: path7170)
(Change tool to Default tool)

G00 Z5.000000
G00 X69.730469 Y16.083984

G01 Z-0.125000 F100.0(Penetrate)
G01 X71.296875 Y15.933594 Z-0.125000 F400.000000
G01 X72.222656 Y19.357422 Z-0.125000
G01 X71.787109 Y19.568359 Z-0.125000
G01 X69.730469 Y18.490234 Z-0.125000
G01 X69.730469 Y16.083984 Z-0.125000
G00 Z5.000000

(End cutting path id: path7170)


(Start cutting path id: path7168)
(Change tool to Default tool)

G00 Z5.000000
G00 X69.730469 Y18.490234

G01 Z-0.125000 F100.0(Penetrate)
G01 X71.787109 Y19.568359 Z-0.125000 F400.000000
G01 X70.945312 Y20.322266 Z-0.125000
G01 X69.730469 Y20.671875 Z-0.125000
G01 X69.730469 Y18.490234 Z-0.125000
G00 Z5.000000

(End cutting path id: path7168)


(Start cutting path id: path7166)
(Change tool to Default tool)

G00 Z5.000000
G00 X69.730469 Y20.671875

G01 Z-0.125000 F100.0(Penetrate)
G01 X70.945312 Y20.322266 Z-0.125000 F400.000000
G01 X71.382812 Y21.818359 Z-0.125000
G01 X70.810547 Y22.556641 Z-0.125000
G01 X69.730469 Y23.007812 Z-0.125000
G01 X69.730469 Y20.671875 Z-0.125000
G00 Z5.000000

(End cutting path id: path7166)


(Start cutting path id: path7164)
(Change tool to Default tool)

G00 Z5.000000
G00 X69.730469 Y23.007812

G01 Z-0.125000 F100.0(Penetrate)
G01 X70.810547 Y22.556641 Z-0.125000 F400.000000
G01 X72.763672 Y23.433594 Z-0.125000
G01 X72.619141 Y23.695312 Z-0.125000
G01 X69.730469 Y24.074219 Z-0.125000
G01 X69.730469 Y23.007812 Z-0.125000
G00 Z5.000000

(End cutting path id: path7164)


(Start cutting path id: path7162)
(Change tool to Default tool)

G00 Z5.000000
G00 X69.730469 Y24.074219

G01 Z-0.125000 F100.0(Penetrate)
G01 X72.619141 Y23.695312 Z-0.125000 F400.000000
G01 X72.621141 Y24.509766 Z-0.125000
G01 X69.730516 Y25.039062 Z-0.125000
G01 X69.730469 Y24.074219 Z-0.125000
G00 Z5.000000

(End cutting path id: path7162)


(Start cutting path id: path7160)
(Change tool to Default tool)

G00 Z5.000000
G00 X69.730469 Y25.039062

G01 Z-0.125000 F100.0(Penetrate)
G01 X72.621094 Y24.509766 Z-0.125000 F400.000000
G01 X72.636724 Y24.626953 Z-0.125000
G01 X72.261724 Y25.507812 Z-0.125000
G01 X69.730474 Y26.234375 Z-0.125000
G01 X69.730469 Y25.039062 Z-0.125000
G00 Z5.000000

(End cutting path id: path7160)


(Start cutting path id: path7158)
(Change tool to Default tool)

G00 Z5.000000
G00 X69.730469 Y26.234375

G01 Z-0.125000 F100.0(Penetrate)
G01 X72.261719 Y25.507812 Z-0.125000 F400.000000
G01 X72.562500 Y25.976562 Z-0.125000
G01 X71.927734 Y28.597656 Z-0.125000
G01 X69.730469 Y28.662106 Z-0.125000
G01 X69.730469 Y26.234375 Z-0.125000
G00 Z5.000000

(End cutting path id: path7158)


(Start cutting path id: path7156)
(Change tool to Default tool)

G00 Z5.000000
G00 X69.730469 Y28.662109

G01 Z-0.125000 F100.0(Penetrate)
G01 X71.927734 Y28.597659 Z-0.125000 F400.000000
G01 X72.882812 Y28.792972 Z-0.125000
G01 X73.107422 Y29.152347 Z-0.125000
G01 X73.203122 Y29.759769 Z-0.125000
G01 X72.492185 Y32.009769 Z-0.125000
G01 X72.207028 Y31.880862 Z-0.125000
G01 X69.730466 Y29.462894 Z-0.125000
G01 X69.730469 Y28.662109 Z-0.125000
G00 Z5.000000

(End cutting path id: path7156)


(Start cutting path id: path7154)
(Change tool to Default tool)

G00 Z5.000000
G00 X69.730469 Y29.462891

G01 Z-0.125000 F100.0(Penetrate)
G01 X72.207031 Y31.880859 Z-0.125000 F400.000000
G01 X69.730469 Y32.507812 Z-0.125000
G01 X69.730469 Y29.462891 Z-0.125000
G00 Z5.000000

(End cutting path id: path7154)


(Start cutting path id: path7152)
(Change tool to Default tool)

G00 Z5.000000
G00 X69.730469 Y32.507812

G01 Z-0.125000 F100.0(Penetrate)
G01 X72.207031 Y31.880859 Z-0.125000 F400.000000
G01 X72.492188 Y32.009766 Z-0.125000
G01 X72.900391 Y32.728516 Z-0.125000
G01 X70.392578 Y33.193359 Z-0.125000
G01 X69.730469 Y33.232419 Z-0.125000
G01 X69.730469 Y32.507812 Z-0.125000
G00 Z5.000000

(End cutting path id: path7152)


(Start cutting path id: path7150)
(Change tool to Default tool)

G00 Z5.000000
G00 X69.730469 Y33.232422

G01 Z-0.125000 F100.0(Penetrate)
G01 X70.392578 Y33.193362 Z-0.125000 F400.000000
G01 X73.125000 Y34.406253 Z-0.125000
G01 X73.238281 Y35.341800 Z-0.125000
G01 X73.095703 Y35.447269 Z-0.125000
G01 X72.597656 Y35.349609 Z-0.125000
G01 X69.730469 Y34.109375 Z-0.125000
G01 X69.730469 Y33.232422 Z-0.125000
G00 Z5.000000

(End cutting path id: path7150)


(Start cutting path id: path7148)
(Change tool to Default tool)

G00 Z5.000000
G00 X69.730469 Y34.109375

G01 Z-0.125000 F100.0(Penetrate)
G01 X72.597656 Y35.349609 Z-0.125000 F400.000000
G01 X70.312500 Y36.042969 Z-0.125000
G01 X69.730469 Y35.580078 Z-0.125000
G01 X69.730469 Y34.109375 Z-0.125000
G00 Z5.000000

(End cutting path id: path7148)


(Start cutting path id: path7146)
(Change tool to Default tool)

G00 Z5.000000
G00 X69.730469 Y35.580078

G01 Z-0.125000 F100.0(Penetrate)
G01 X70.312500 Y36.042969 Z-0.125000 F400.000000
G01 X70.343750 Y36.675781 Z-0.125000
G01 X69.730469 Y37.373047 Z-0.125000
G01 X69.730469 Y35.580078 Z-0.125000
G00 Z5.000000

(End cutting path id: path7146)


(Start cutting path id: path7144)
(Change tool to Default tool)

G00 Z5.000000
G00 X69.730469 Y37.373047

G01 Z-0.125000 F100.0(Penetrate)
G01 X70.343750 Y36.675781 Z-0.125000 F400.000000
G01 X72.111328 Y36.949219 Z-0.125000
G01 X71.130859 Y38.958984 Z-0.125000
G01 X70.628906 Y39.277344 Z-0.125000
G01 X69.730469 Y39.417969 Z-0.125000
G01 X69.730469 Y37.373047 Z-0.125000
G00 Z5.000000

(End cutting path id: path7144)


(Start cutting path id: path7142)
(Change tool to Default tool)

G00 Z5.000000
G00 X69.730469 Y39.417969

G01 Z-0.125000 F100.0(Penetrate)
G01 X70.628906 Y39.277344 Z-0.125000 F400.000000
G01 X72.742188 Y41.550781 Z-0.125000
G01 X71.177734 Y42.814453 Z-0.125000
G01 X69.730469 Y41.744141 Z-0.125000
G01 X69.730469 Y39.417969 Z-0.125000
G00 Z5.000000

(End cutting path id: path7142)


(Start cutting path id: path7140)
(Change tool to Default tool)

G00 Z5.000000
G00 X69.730469 Y41.744141

G01 Z-0.125000 F100.0(Penetrate)
G01 X71.177734 Y42.814453 Z-0.125000 F400.000000
G01 X71.306641 Y43.667969 Z-0.125000
G01 X69.820312 Y45.097656 Z-0.125000
G01 X69.730472 Y45.111326 Z-0.125000
G01 X69.730469 Y41.744141 Z-0.125000
G00 Z5.000000

(End cutting path id: path7140)


(Start cutting path id: path7138)
(Change tool to Default tool)

G00 Z5.000000
G00 X69.730469 Y45.111328

G01 Z-0.125000 F100.0(Penetrate)
G01 X69.820309 Y45.097658 Z-0.125000 F400.000000
G01 X71.447263 Y46.412111 Z-0.125000
G01 X71.998044 Y48.130861 Z-0.125000
G01 X69.730466 Y47.533205 Z-0.125000
G01 X69.730469 Y45.111328 Z-0.125000
G00 Z5.000000

(End cutting path id: path7138)


(Start cutting path id: path7136)
(Change tool to Default tool)

G00 Z5.000000
G00 X69.730469 Y47.533203

G01 Z-0.125000 F100.0(Penetrate)
G01 X71.998047 Y48.130859 Z-0.125000 F400.000000
G01 X72.343750 Y48.507812 Z-0.125000
G01 X72.265620 Y48.619141 Z-0.125000
G01 X71.923823 Y48.921875 Z-0.125000
G01 X69.730464 Y49.007815 Z-0.125000
G01 X69.730469 Y47.533203 Z-0.125000
G00 Z5.000000

(End cutting path id: path7136)


(Start cutting path id: path7134)
(Change tool to Default tool)

G00 Z5.000000
G00 X69.730469 Y49.007812

G01 Z-0.125000 F100.0(Penetrate)
G01 X71.923828 Y48.921872 Z-0.125000 F400.000000
G01 X71.451172 Y49.591794 Z-0.125000
G01 X69.730469 Y51.027341 Z-0.125000
G01 X69.730469 Y49.007812 Z-0.125000
G00 Z5.000000

(End cutting path id: path7134)


(Start cutting path id: path7132)
(Change tool to Default tool)

G00 Z5.000000
G00 X69.730469 Y51.027344

G01 Z-0.125000 F100.0(Penetrate)
G01 X71.451172 Y49.591797 Z-0.125000 F400.000000
G01 X71.869141 Y52.556641 Z-0.125000
G01 X69.730469 Y53.039062 Z-0.125000
G01 X69.730469 Y51.027344 Z-0.125000
G00 Z5.000000

(End cutting path id: path7132)


(Start cutting path id: path7130)
(Change tool to Default tool)

G00 Z5.000000
G00 X69.730469 Y53.039062

G01 Z-0.125000 F100.0(Penetrate)
G01 X71.869141 Y52.556641 Z-0.125000 F400.000000
G01 X72.802734 Y52.613281 Z-0.125000
G01 X73.289062 Y55.423828 Z-0.125000
G01 X73.203122 Y55.574219 Z-0.125000
G01 X69.730466 Y53.906250 Z-0.125000
G01 X69.730469 Y53.039062 Z-0.125000
G00 Z5.000000

(End cutting path id: path7130)


(Start cutting path id: path7128)
(Change tool to Default tool)

G00 Z5.000000
G00 X69.730469 Y53.906250

G01 Z-0.125000 F100.0(Penetrate)
G01 X73.203125 Y55.574219 Z-0.125000 F400.000000
G01 X73.201125 Y55.587889 Z-0.125000
G01 X70.955031 Y56.416014 Z-0.125000
G01 X69.730422 Y55.167967 Z-0.125000
G01 X69.730469 Y53.906250 Z-0.125000
G00 Z5.000000

(End cutting path id: path7128)


(Start cutting path id: path7126)
(Change tool to Default tool)

G00 Z5.000000
G00 X69.730469 Y55.167969

G01 Z-0.125000 F100.0(Penetrate)
G01 X70.955078 Y56.416016 Z-0.125000 F400.000000
G01 X70.650391 Y58.146484 Z-0.125000
G01 X69.730469 Y58.677734 Z-0.125000
G01 X69.730469 Y55.167969 Z-0.125000
G00 Z5.000000

(End cutting path id: path7126)


(Start cutting path id: path7124)
(Change tool to Default tool)

G00 Z5.000000
G00 X69.730469 Y58.677734

G01 Z-0.125000 F100.0(Penetrate)
G01 X70.650391 Y58.146484 Z-0.125000 F400.000000
G01 X71.515625 Y58.177734 Z-0.125000
G01 X73.105469 Y58.988281 Z-0.125000
G01 X73.474609 Y59.871094 Z-0.125000
G01 X73.097656 Y60.578125 Z-0.125000
G01 X71.884766 Y60.875000 Z-0.125000
G01 X69.730469 Y59.373047 Z-0.125000
G01 X69.730469 Y58.677734 Z-0.125000
G00 Z5.000000

(End cutting path id: path7124)


(Start cutting path id: path7122)
(Change tool to Default tool)

G00 Z5.000000
G00 X69.730469 Y59.373047

G01 Z-0.125000 F100.0(Penetrate)
G01 X71.884766 Y60.875000 Z-0.125000 F400.000000
G01 X69.730469 Y64.541016 Z-0.125000
G01 X69.730469 Y59.373047 Z-0.125000
G00 Z5.000000

(End cutting path id: path7122)


(Start cutting path id: path7120)
(Change tool to Default tool)

G00 Z5.000000
G00 X73.474609 Y59.871094

G01 Z-0.125000 F100.0(Penetrate)
G01 X73.105469 Y58.988281 Z-0.125000 F400.000000
G01 X73.933594 Y56.816406 Z-0.125000
G01 X75.851562 Y57.423828 Z-0.125000
G01 X76.064453 Y57.580078 Z-0.125000
G01 X76.568359 Y58.890625 Z-0.125000
G01 X76.558559 Y58.925785 Z-0.125000
G01 X74.273403 Y59.751957 Z-0.125000
G01 X73.474609 Y59.871094 Z-0.125000
G00 Z5.000000

(End cutting path id: path7120)


(Start cutting path id: path7118)
(Change tool to Default tool)

G00 Z5.000000
G00 X74.273438 Y59.751953

G01 Z-0.125000 F100.0(Penetrate)
G01 X76.558594 Y58.925781 Z-0.125000 F400.000000
G01 X77.074219 Y60.296875 Z-0.125000
G01 X76.025391 Y62.298828 Z-0.125000
G01 X74.273438 Y59.751953 Z-0.125000
G00 Z5.000000

(End cutting path id: path7118)


(Start cutting path id: path7116)
(Change tool to Default tool)

G00 Z5.000000
G00 X77.074219 Y60.296875

G01 Z-0.125000 F100.0(Penetrate)
G01 X76.558594 Y58.925781 Z-0.125000 F400.000000
G01 X76.568394 Y58.890621 Z-0.125000
G01 X78.937535 Y57.986324 Z-0.125000
G01 X80.033238 Y58.453121 Z-0.125000
G01 X80.244176 Y60.017574 Z-0.125000
G01 X78.457066 Y60.894527 Z-0.125000
G01 X77.074219 Y60.296875 Z-0.125000
G00 Z5.000000

(End cutting path id: path7116)


(Start cutting path id: path7114)
(Change tool to Default tool)

G00 Z5.000000
G00 X78.457031 Y60.894531

G01 Z-0.125000 F100.0(Penetrate)
G01 X80.244141 Y60.017578 Z-0.125000 F400.000000
G01 X81.281250 Y60.861328 Z-0.125000
G01 X80.435547 Y62.021484 Z-0.125000
G01 X79.478516 Y62.664062 Z-0.125000
G01 X78.958984 Y62.978516 Z-0.125000
G01 X78.927734 Y62.972616 Z-0.125000
G01 X78.457031 Y60.894531 Z-0.125000
G00 Z5.000000

(End cutting path id: path7114)


(Start cutting path id: path7112)
(Change tool to Default tool)

G00 Z5.000000
G00 X78.958984 Y62.978516

G01 Z-0.125000 F100.0(Penetrate)
G01 X79.478516 Y62.664062 Z-0.125000 F400.000000
G01 X81.064453 Y63.093750 Z-0.125000
G01 X81.177734 Y63.248047 Z-0.125000
G01 X79.789062 Y63.718750 Z-0.125000
G01 X78.958984 Y62.978516 Z-0.125000
G00 Z5.000000

(End cutting path id: path7112)


(Start cutting path id: path7110)
(Change tool to Default tool)

G00 Z5.000000
G00 X79.789062 Y63.718750

G01 Z-0.125000 F100.0(Penetrate)
G01 X81.177734 Y63.248047 Z-0.125000 F400.000000
G01 X81.890625 Y63.423828 Z-0.125000
G01 X81.925785 Y64.214844 Z-0.125000
G01 X81.582035 Y64.599609 Z-0.125000
G01 X80.140629 Y64.466797 Z-0.125000
G01 X79.789062 Y63.718750 Z-0.125000
G00 Z5.000000

(End cutting path id: path7110)


(Start cutting path id: path7108)
(Change tool to Default tool)

G00 Z5.000000
G00 X81.925781 Y64.214844

G01 Z-0.125000 F100.0(Penetrate)
G01 X81.890621 Y63.423828 Z-0.125000 F400.000000
G01 X83.107418 Y61.400391 Z-0.125000
G01 X83.759762 Y61.521484 Z-0.125000
G01 X84.947262 Y62.416016 Z-0.125000
G01 X85.123043 Y62.742188 Z-0.125000
G01 X85.283199 Y63.273438 Z-0.125000
G01 X85.097652 Y65.269531 Z-0.125000
G01 X81.925781 Y64.214844 Z-0.125000
G00 Z5.000000

(End cutting path id: path7108)


(Start cutting path id: path7106)
(Change tool to Default tool)

G00 Z5.000000
G00 X85.097656 Y65.269531

G01 Z-0.125000 F100.0(Penetrate)
G01 X85.283203 Y63.273438 Z-0.125000 F400.000000
G01 X88.205078 Y63.232418 Z-0.125000
G01 X88.386719 Y63.244138 Z-0.125000
G01 X88.693359 Y64.507809 Z-0.125000
G01 X85.166016 Y65.576169 Z-0.125000
G01 X85.097656 Y65.269531 Z-0.125000
G00 Z5.000000

(End cutting path id: path7106)


(Start cutting path id: path7104)
(Change tool to Default tool)

G00 Z5.000000
G00 X88.386719 Y63.244141

G01 Z-0.125000 F100.0(Penetrate)
G01 X88.205078 Y63.232421 Z-0.125000 F400.000000
G01 X87.248047 Y61.929687 Z-0.125000
G01 X87.541016 Y61.746093 Z-0.125000
G01 X89.000000 Y62.339844 Z-0.125000
G01 X88.386719 Y63.244141 Z-0.125000
G00 Z5.000000

(End cutting path id: path7104)


(Start cutting path id: path7102)
(Change tool to Default tool)

G00 Z5.000000
G00 X89.000000 Y62.339844

G01 Z-0.125000 F100.0(Penetrate)
G01 X87.541016 Y61.746094 Z-0.125000 F400.000000
G01 X87.447266 Y60.283203 Z-0.125000
G01 X89.435547 Y61.011719 Z-0.125000
G01 X89.494137 Y61.089849 Z-0.125000
G01 X89.093746 Y62.267583 Z-0.125000
G01 X89.000000 Y62.339844 Z-0.125000
G00 Z5.000000

(End cutting path id: path7102)


(Start cutting path id: path7100)
(Change tool to Default tool)

G00 Z5.000000
G00 X89.093750 Y62.267578

G01 Z-0.125000 F100.0(Penetrate)
G01 X89.494141 Y61.089844 Z-0.125000 F400.000000
G01 X90.550781 Y60.968750 Z-0.125000
G01 X91.517578 Y61.113281 Z-0.125000
G01 X91.550778 Y63.326172 Z-0.125000
G01 X91.183591 Y63.755859 Z-0.125000
G01 X89.093750 Y62.267578 Z-0.125000
G00 Z5.000000

(End cutting path id: path7100)


(Start cutting path id: path7098)
(Change tool to Default tool)

G00 Z5.000000
G00 X91.550781 Y63.326172

G01 Z-0.125000 F100.0(Penetrate)
G01 X91.517581 Y61.113281 Z-0.125000 F400.000000
G01 X92.000000 Y60.810547 Z-0.125000
G01 X92.527344 Y61.031250 Z-0.125000
G01 X93.949219 Y62.931641 Z-0.125000
G01 X93.843750 Y63.121094 Z-0.125000
G01 X91.550781 Y63.326172 Z-0.125000
G00 Z5.000000

(End cutting path id: path7098)


(Start cutting path id: path7096)
(Change tool to Default tool)

G00 Z5.000000
G00 X93.843750 Y63.121094

G01 Z-0.125000 F100.0(Penetrate)
G01 X93.949219 Y62.931641 Z-0.125000 F400.000000
G01 X95.052734 Y62.240234 Z-0.125000
G01 X95.644531 Y63.519531 Z-0.125000
G01 X94.093750 Y64.822266 Z-0.125000
G01 X93.843750 Y63.121094 Z-0.125000
G00 Z5.000000

(End cutting path id: path7096)


(Start cutting path id: path7094)
(Change tool to Default tool)

G00 Z5.000000
G00 X95.644531 Y63.519531

G01 Z-0.125000 F100.0(Penetrate)
G01 X95.052734 Y62.240234 Z-0.125000 F400.000000
G01 X95.357422 Y61.873047 Z-0.125000
G01 X95.578125 Y61.761719 Z-0.125000
G01 X97.371094 Y62.353516 Z-0.125000
G01 X97.462894 Y63.662109 Z-0.125000
G01 X96.085941 Y64.279297 Z-0.125000
G01 X95.644531 Y63.519531 Z-0.125000
G00 Z5.000000

(End cutting path id: path7094)


(Start cutting path id: path7092)
(Change tool to Default tool)

G00 Z5.000000
G00 X97.371094 Y62.353516

G01 Z-0.125000 F100.0(Penetrate)
G01 X95.578125 Y61.761719 Z-0.125000 F400.000000
G01 X95.867188 Y60.158203 Z-0.125000
G01 X96.566406 Y59.593750 Z-0.125000
G01 X96.736328 Y59.574220 Z-0.125000
G01 X98.855469 Y60.242189 Z-0.125000
G01 X98.177734 Y61.771485 Z-0.125000
G01 X97.371094 Y62.353516 Z-0.125000
G00 Z5.000000

(End cutting path id: path7092)


(Start cutting path id: path7090)
(Change tool to Default tool)

G00 Z5.000000
G00 X98.177734 Y61.771484

G01 Z-0.125000 F100.0(Penetrate)
G01 X98.855469 Y60.242188 Z-0.125000 F400.000000
G01 X99.492188 Y59.837891 Z-0.125000
G01 X100.576170 Y61.224609 Z-0.125000
G01 X101.023440 Y62.357422 Z-0.125000
G01 X99.326172 Y62.677734 Z-0.125000
G01 X98.177734 Y61.771484 Z-0.125000
G00 Z5.000000

(End cutting path id: path7090)


(Start cutting path id: path7088)
(Change tool to Default tool)

G00 Z5.000000
G00 X101.023440 Y62.357422

G01 Z-0.125000 F100.0(Penetrate)
G01 X100.576170 Y61.224609 Z-0.125000 F400.000000
G01 X102.521480 Y60.578125 Z-0.125000
G01 X102.578080 Y60.710938 Z-0.125000
G01 X102.330040 Y62.078125 Z-0.125000
G01 X101.904260 Y62.625000 Z-0.125000
G01 X101.537070 Y62.820312 Z-0.125000
G01 X101.023440 Y62.357422 Z-0.125000
G00 Z5.000000

(End cutting path id: path7088)


(Start cutting path id: path7086)
(Change tool to Default tool)

G00 Z5.000000
G00 X101.537110 Y62.820312

G01 Z-0.125000 F100.0(Penetrate)
G01 X101.904300 Y62.625000 Z-0.125000 F400.000000
G01 X103.759770 Y63.179688 Z-0.125000
G01 X103.902340 Y63.857422 Z-0.125000
G01 X103.750000 Y64.027344 Z-0.125000
G01 X101.339840 Y64.417969 Z-0.125000
G01 X101.537110 Y62.820312 Z-0.125000
G00 Z5.000000

(End cutting path id: path7086)


(Start cutting path id: path7084)
(Change tool to Default tool)

G00 Z5.000000
G00 X103.902340 Y63.857422

G01 Z-0.125000 F100.0(Penetrate)
G01 X103.759770 Y63.179688 Z-0.125000 F400.000000
G01 X104.123050 Y62.597656 Z-0.125000
G01 X106.111330 Y62.960938 Z-0.125000
G01 X106.148430 Y64.316406 Z-0.125000
G01 X103.902340 Y63.857422 Z-0.125000
G00 Z5.000000

(End cutting path id: path7084)


(Start cutting path id: path7082)
(Change tool to Default tool)

G00 Z5.000000
G00 X106.111330 Y62.960938

G01 Z-0.125000 F100.0(Penetrate)
G01 X104.123050 Y62.597656 Z-0.125000 F400.000000
G01 X103.986330 Y61.847656 Z-0.125000
G01 X104.277340 Y61.210938 Z-0.125000
G01 X104.320340 Y61.179688 Z-0.125000
G01 X106.310580 Y61.570312 Z-0.125000
G01 X106.517610 Y61.767578 Z-0.125000
G01 X106.111330 Y62.960938 Z-0.125000
G00 Z5.000000

(End cutting path id: path7082)


(Start cutting path id: path7080)
(Change tool to Default tool)

G00 Z5.000000
G00 X106.517580 Y61.767578

G01 Z-0.125000 F100.0(Penetrate)
G01 X106.310550 Y61.570312 Z-0.125000 F400.000000
G01 X105.847660 Y59.630859 Z-0.125000
G01 X107.246090 Y59.748047 Z-0.125000
G01 X107.324190 Y61.564453 Z-0.125000
G01 X106.517580 Y61.767578 Z-0.125000
G00 Z5.000000

(End cutting path id: path7080)


(Start cutting path id: path7078)
(Change tool to Default tool)

G00 Z5.000000
G00 X107.324220 Y61.564453

G01 Z-0.125000 F100.0(Penetrate)
G01 X107.246120 Y59.748047 Z-0.125000 F400.000000
G01 X107.685580 Y59.166016 Z-0.125000
G01 X108.390650 Y59.507812 Z-0.125000
G01 X108.304750 Y61.578125 Z-0.125000
G01 X107.324220 Y61.564453 Z-0.125000
G00 Z5.000000

(End cutting path id: path7078)


(Start cutting path id: path7076)
(Change tool to Default tool)

G00 Z5.000000
G00 X108.304690 Y61.578125

G01 Z-0.125000 F100.0(Penetrate)
G01 X108.390590 Y59.507812 Z-0.125000 F400.000000
G01 X110.013640 Y58.658203 Z-0.125000
G01 X110.281220 Y58.814453 Z-0.125000
G01 X109.158170 Y61.974609 Z-0.125000
G01 X108.304690 Y61.578125 Z-0.125000
G00 Z5.000000

(End cutting path id: path7076)


(Start cutting path id: path7074)
(Change tool to Default tool)

G00 Z5.000000
G00 X109.158200 Y61.974609

G01 Z-0.125000 F100.0(Penetrate)
G01 X110.281250 Y58.814453 Z-0.125000 F400.000000
G01 X112.052730 Y58.974609 Z-0.125000
G01 X110.746090 Y61.994141 Z-0.125000
G01 X109.248050 Y62.070311 Z-0.125000
G01 X109.158200 Y61.974609 Z-0.125000
G00 Z5.000000

(End cutting path id: path7074)


(Start cutting path id: path7072)
(Change tool to Default tool)

G00 Z5.000000
G00 X110.746090 Y61.994141

G01 Z-0.125000 F100.0(Penetrate)
G01 X112.052730 Y58.974609 Z-0.125000 F400.000000
G01 X112.378910 Y58.874999 Z-0.125000
G01 X113.806640 Y61.742187 Z-0.125000
G01 X111.253910 Y62.314452 Z-0.125000
G01 X110.746090 Y61.994141 Z-0.125000
G00 Z5.000000

(End cutting path id: path7072)


(Start cutting path id: path7070)
(Change tool to Default tool)

G00 Z5.000000
G00 X111.253910 Y62.314453

G01 Z-0.125000 F100.0(Penetrate)
G01 X113.806640 Y61.742188 Z-0.125000 F400.000000
G01 X115.316410 Y62.789062 Z-0.125000
G01 X112.740230 Y64.076172 Z-0.125000
G01 X111.609380 Y63.628906 Z-0.125000
G01 X111.253910 Y62.314453 Z-0.125000
G00 Z5.000000

(End cutting path id: path7070)


(Start cutting path id: path7068)
(Change tool to Default tool)

G00 Z5.000000
G00 X115.316410 Y62.789062

G01 Z-0.125000 F100.0(Penetrate)
G01 X113.806640 Y61.742188 Z-0.125000 F400.000000
G01 X112.378910 Y58.875000 Z-0.125000
G01 X112.724610 Y58.423828 Z-0.125000
G01 X114.978520 Y58.283203 Z-0.125000
G01 X115.943360 Y62.679688 Z-0.125000
G01 X115.494140 Y62.824219 Z-0.125000
G01 X115.316410 Y62.789062 Z-0.125000
G00 Z5.000000

(End cutting path id: path7068)


(Start cutting path id: path7066)
(Change tool to Default tool)

G00 Z5.000000
G00 X115.943360 Y62.679688

G01 Z-0.125000 F100.0(Penetrate)
G01 X114.978520 Y58.283203 Z-0.125000 F400.000000
G01 X114.994120 Y58.273403 Z-0.125000
G01 X115.115210 Y58.265603 Z-0.125000
G01 X118.652320 Y60.287087 Z-0.125000
G01 X118.513650 Y61.498025 Z-0.125000
G01 X117.050760 Y62.646462 Z-0.125000
G01 X117.031260 Y62.648462 Z-0.125000
G01 X115.943360 Y62.679688 Z-0.125000
G00 Z5.000000

(End cutting path id: path7066)


(Start cutting path id: path7064)
(Change tool to Default tool)

G00 Z5.000000
G00 X118.513670 Y61.498047

G01 Z-0.125000 F100.0(Penetrate)
G01 X118.652340 Y60.287109 Z-0.125000 F400.000000
G01 X118.703140 Y60.162109 Z-0.125000
G01 X120.972680 Y58.712891 Z-0.125000
G01 X122.048850 Y59.255859 Z-0.125000
G01 X122.224630 Y59.406250 Z-0.125000
G01 X121.859400 Y60.464844 Z-0.125000
G01 X118.636740 Y61.542969 Z-0.125000
G01 X118.513670 Y61.498047 Z-0.125000
G00 Z5.000000

(End cutting path id: path7064)


(Start cutting path id: path7062)
(Change tool to Default tool)

G00 Z5.000000
G00 X122.048830 Y59.255859

G01 Z-0.125000 F100.0(Penetrate)
G01 X120.972660 Y58.712891 Z-0.125000 F400.000000
G01 X121.076170 Y57.306641 Z-0.125000
G01 X122.812500 Y57.761719 Z-0.125000
G01 X122.048830 Y59.255859 Z-0.125000
G00 Z5.000000

(End cutting path id: path7062)


(Start cutting path id: path7060)
(Change tool to Default tool)

G00 Z5.000000
G00 X122.812500 Y57.761719

G01 Z-0.125000 F100.0(Penetrate)
G01 X121.076170 Y57.306641 Z-0.125000 F400.000000
G01 X121.072170 Y57.287111 Z-0.125000
G01 X122.538960 Y56.193361 Z-0.125000
G01 X123.663960 Y56.761721 Z-0.125000
G01 X123.826070 Y57.425783 Z-0.125000
G01 X122.812500 Y57.761719 Z-0.125000
G00 Z5.000000

(End cutting path id: path7060)


(Start cutting path id: path7058)
(Change tool to Default tool)

G00 Z5.000000
G00 X123.664060 Y56.761719

G01 Z-0.125000 F100.0(Penetrate)
G01 X122.539060 Y56.193359 Z-0.125000 F400.000000
G01 X122.464860 Y55.761719 Z-0.125000
G01 X122.773460 Y54.158203 Z-0.125000
G01 X124.591820 Y55.144531 Z-0.125000
G01 X124.599820 Y55.171871 Z-0.125000
G01 X124.203330 Y56.083980 Z-0.125000
G01 X123.664060 Y56.761719 Z-0.125000
G00 Z5.000000

(End cutting path id: path7058)


(Start cutting path id: path7056)
(Change tool to Default tool)

G00 Z5.000000
G00 X124.599610 Y55.171875

G01 Z-0.125000 F100.0(Penetrate)
G01 X124.591610 Y55.144535 Z-0.125000 F400.000000
G01 X125.595510 Y53.312504 Z-0.125000
G01 X126.025200 Y53.064457 Z-0.125000
G01 X126.827930 Y53.539066 Z-0.125000
G01 X126.857230 Y54.373051 Z-0.125000
G01 X125.722470 Y55.634770 Z-0.125000
G01 X124.599610 Y55.171875 Z-0.125000
G00 Z5.000000

(End cutting path id: path7056)


(Start cutting path id: path7054)
(Change tool to Default tool)

G00 Z5.000000
G00 X126.025390 Y53.064453

G01 Z-0.125000 F100.0(Penetrate)
G01 X125.595700 Y53.312500 Z-0.125000 F400.000000
G01 X123.339840 Y53.107422 Z-0.125000
G01 X123.857420 Y52.025391 Z-0.125000
G01 X124.263670 Y51.546875 Z-0.125000
G01 X125.894530 Y52.181641 Z-0.125000
G01 X126.025390 Y53.064453 Z-0.125000
G00 Z5.000000

(End cutting path id: path7054)


(Start cutting path id: path7052)
(Change tool to Default tool)

G00 Z5.000000
G00 X125.894530 Y52.181641

G01 Z-0.125000 F100.0(Penetrate)
G01 X124.263670 Y51.546875 Z-0.125000 F400.000000
G01 X124.021480 Y50.816406 Z-0.125000
G01 X124.212890 Y50.681641 Z-0.125000
G01 X126.449220 Y50.443359 Z-0.125000
G01 X126.363320 Y51.083984 Z-0.125000
G01 X125.894530 Y52.181641 Z-0.125000
G00 Z5.000000

(End cutting path id: path7052)


(Start cutting path id: path7050)
(Change tool to Default tool)

G00 Z5.000000
G00 X126.449220 Y50.443359

G01 Z-0.125000 F100.0(Penetrate)
G01 X124.212890 Y50.681641 Z-0.125000 F400.000000
G01 X125.121090 Y48.873047 Z-0.125000
G01 X125.218790 Y48.859377 Z-0.125000
G01 X126.503950 Y50.308596 Z-0.125000
G01 X126.449220 Y50.443359 Z-0.125000
G00 Z5.000000

(End cutting path id: path7050)


(Start cutting path id: path7048)
(Change tool to Default tool)

G00 Z5.000000
G00 X125.218750 Y48.859375

G01 Z-0.125000 F100.0(Penetrate)
G01 X125.121050 Y48.873045 Z-0.125000 F400.000000
G01 X124.447230 Y48.761717 Z-0.125000
G01 X123.068320 Y46.580076 Z-0.125000
G01 X123.410120 Y46.193357 Z-0.125000
G01 X123.804650 Y46.132807 Z-0.125000
G01 X125.429650 Y47.113276 Z-0.125000
G01 X125.499950 Y48.310542 Z-0.125000
G01 X125.218750 Y48.859375 Z-0.125000
G00 Z5.000000

(End cutting path id: path7048)


(Start cutting path id: path7046)
(Change tool to Default tool)

G00 Z5.000000
G00 X125.500000 Y48.310547

G01 Z-0.125000 F100.0(Penetrate)
G01 X125.429700 Y47.113281 Z-0.125000 F400.000000
G01 X126.410170 Y46.513672 Z-0.125000
G01 X126.769540 Y46.402344 Z-0.125000
G01 X126.927740 Y46.521484 Z-0.125000
G01 X126.511730 Y48.121094 Z-0.125000
G01 X125.500000 Y48.310547 Z-0.125000
G00 Z5.000000

(End cutting path id: path7046)


(Start cutting path id: path7044)
(Change tool to Default tool)

G00 Z5.000000
G00 X126.769530 Y46.402344

G01 Z-0.125000 F100.0(Penetrate)
G01 X126.410160 Y46.513672 Z-0.125000 F400.000000
G01 X124.837890 Y45.205078 Z-0.125000
G01 X126.095700 Y43.382812 Z-0.125000
G01 X126.810550 Y43.398442 Z-0.125000
G01 X126.769530 Y46.402344 Z-0.125000
G00 Z5.000000

(End cutting path id: path7044)


(Start cutting path id: path7042)
(Change tool to Default tool)

G00 Z5.000000
G00 X126.095700 Y43.382812

G01 Z-0.125000 F100.0(Penetrate)
G01 X124.837890 Y45.205078 Z-0.125000 F400.000000
G01 X123.804690 Y46.132812 Z-0.125000
G01 X123.410160 Y46.193362 Z-0.125000
G01 X123.277340 Y45.820315 Z-0.125000
G01 X123.542970 Y43.476565 Z-0.125000
G01 X125.027340 Y42.800784 Z-0.125000
G01 X126.095700 Y43.382812 Z-0.125000
G00 Z5.000000

(End cutting path id: path7042)


(Start cutting path id: path7040)
(Change tool to Default tool)

G00 Z5.000000
G00 X125.027340 Y42.800781

G01 Z-0.125000 F100.0(Penetrate)
G01 X123.542970 Y43.476562 Z-0.125000 F400.000000
G01 X122.970700 Y43.386722 Z-0.125000
G01 X123.062500 Y41.457034 Z-0.125000
G01 X123.408200 Y40.501956 Z-0.125000
G01 X123.939450 Y40.597656 Z-0.125000
G01 X125.027340 Y42.800781 Z-0.125000
G00 Z5.000000

(End cutting path id: path7040)


(Start cutting path id: path7038)
(Change tool to Default tool)

G00 Z5.000000
G00 X123.408200 Y40.501953

G01 Z-0.125000 F100.0(Penetrate)
G01 X123.062500 Y41.457031 Z-0.125000 F400.000000
G01 X122.132810 Y43.353516 Z-0.125000
G01 X121.515620 Y43.480469 Z-0.125000
G01 X121.691410 Y40.626953 Z-0.125000
G01 X122.054690 Y39.958984 Z-0.125000
G01 X123.408200 Y40.501953 Z-0.125000
G00 Z5.000000

(End cutting path id: path7038)


(Start cutting path id: path7036)
(Change tool to Default tool)

G00 Z5.000000
G00 X122.054690 Y39.958984

G01 Z-0.125000 F100.0(Penetrate)
G01 X121.691410 Y40.626953 Z-0.125000 F400.000000
G01 X119.027340 Y42.417969 Z-0.125000
G01 X119.005840 Y42.320309 Z-0.125000
G01 X119.312480 Y40.451169 Z-0.125000
G01 X120.568340 Y37.517575 Z-0.125000
G01 X120.574340 Y37.515575 Z-0.125000
G01 X122.054690 Y39.958984 Z-0.125000
G00 Z5.000000

(End cutting path id: path7036)


(Start cutting path id: path7034)
(Change tool to Default tool)

G00 Z5.000000
G00 X120.568360 Y37.517578

G01 Z-0.125000 F100.0(Penetrate)
G01 X119.312500 Y40.451172 Z-0.125000 F400.000000
G01 X117.488280 Y40.439452 Z-0.125000
G01 X116.544920 Y39.646483 Z-0.125000
G01 X117.171880 Y38.376952 Z-0.125000
G01 X120.453120 Y37.503905 Z-0.125000
G01 X120.568360 Y37.517578 Z-0.125000
G00 Z5.000000

(End cutting path id: path7034)


(Start cutting path id: path7032)
(Change tool to Default tool)

G00 Z5.000000
G00 X120.453120 Y37.503906

G01 Z-0.125000 F100.0(Penetrate)
G01 X117.171880 Y38.376953 Z-0.125000 F400.000000
G01 X116.839840 Y38.019531 Z-0.125000
G01 X116.044920 Y36.871094 Z-0.125000
G01 X115.865230 Y34.837891 Z-0.125000
G01 X116.144530 Y34.193359 Z-0.125000
G01 X118.449220 Y35.367188 Z-0.125000
G01 X120.453120 Y37.503906 Z-0.125000
G00 Z5.000000

(End cutting path id: path7032)


(Start cutting path id: path7030)
(Change tool to Default tool)

G00 Z5.000000
G00 X116.144530 Y34.193359

G01 Z-0.125000 F100.0(Penetrate)
G01 X115.865230 Y34.837891 Z-0.125000 F400.000000
G01 X114.445310 Y35.375000 Z-0.125000
G01 X112.693360 Y33.701172 Z-0.125000
G01 X113.177730 Y33.208984 Z-0.125000
G01 X116.062500 Y33.423828 Z-0.125000
G01 X116.144530 Y34.193359 Z-0.125000
G00 Z5.000000

(End cutting path id: path7030)


(Start cutting path id: path7028)
(Change tool to Default tool)

G00 Z5.000000
G00 X116.062500 Y33.423828

G01 Z-0.125000 F100.0(Penetrate)
G01 X113.177730 Y33.208984 Z-0.125000 F400.000000
G01 X112.724610 Y31.289062 Z-0.125000
G01 X112.890620 Y31.076172 Z-0.125000
G01 X114.078120 Y30.779297 Z-0.125000
G01 X114.695310 Y30.914062 Z-0.125000
G01 X116.066410 Y33.416016 Z-0.125000
G01 X116.062500 Y33.423828 Z-0.125000
G00 Z5.000000

(End cutting path id: path7028)


(Start cutting path id: path7026)
(Change tool to Default tool)

G00 Z5.000000
G00 X112.724610 Y31.289062

G01 Z-0.125000 F100.0(Penetrate)
G01 X113.177730 Y33.208984 Z-0.125000 F400.000000
G01 X112.693360 Y33.701172 Z-0.125000
G01 X110.914060 Y35.070312 Z-0.125000
G01 X109.800780 Y33.986328 Z-0.125000
G01 X110.187500 Y31.361328 Z-0.125000
G01 X112.724610 Y31.289062 Z-0.125000
G00 Z5.000000

(End cutting path id: path7026)


(Start cutting path id: path7024)
(Change tool to Default tool)

G00 Z5.000000
G00 X110.187500 Y31.361328

G01 Z-0.125000 F100.0(Penetrate)
G01 X109.800780 Y33.986328 Z-0.125000 F400.000000
G01 X109.720680 Y33.988328 Z-0.125000
G01 X107.355450 Y32.507859 Z-0.125000
G01 X107.318350 Y31.632859 Z-0.125000
G01 X109.195300 Y29.554735 Z-0.125000
G01 X110.187500 Y31.361328 Z-0.125000
G00 Z5.000000

(End cutting path id: path7024)


(Start cutting path id: path7022)
(Change tool to Default tool)

G00 Z5.000000
G00 X109.195310 Y29.554688

G01 Z-0.125000 F100.0(Penetrate)
G01 X107.318360 Y31.632812 Z-0.125000 F400.000000
G01 X105.945310 Y31.146484 Z-0.125000
G01 X105.830080 Y30.173828 Z-0.125000
G01 X106.857420 Y28.302734 Z-0.125000
G01 X107.281250 Y28.234374 Z-0.125000
G01 X108.767580 Y28.746093 Z-0.125000
G01 X109.033200 Y28.884765 Z-0.125000
G01 X109.173830 Y29.367187 Z-0.125000
G01 X109.195310 Y29.554688 Z-0.125000
G00 Z5.000000

(End cutting path id: path7022)


(Start cutting path id: path7020)
(Change tool to Default tool)

G00 Z5.000000
G00 X109.033200 Y28.884766

G01 Z-0.125000 F100.0(Penetrate)
G01 X108.767580 Y28.746094 Z-0.125000 F400.000000
G01 X108.912110 Y24.460938 Z-0.125000
G01 X110.884770 Y24.285156 Z-0.125000
G01 X110.884770 Y24.310546 Z-0.125000
G01 X110.310550 Y27.847655 Z-0.125000
G01 X109.033200 Y28.884766 Z-0.125000
G00 Z5.000000

(End cutting path id: path7020)


(Start cutting path id: path7018)
(Change tool to Default tool)

G00 Z5.000000
G00 X110.310550 Y27.847656

G01 Z-0.125000 F100.0(Penetrate)
G01 X110.884770 Y24.310547 Z-0.125000 F400.000000
G01 X113.050780 Y27.445312 Z-0.125000
G01 X113.089880 Y27.574219 Z-0.125000
G01 X112.992180 Y27.876953 Z-0.125000
G01 X110.310550 Y27.847656 Z-0.125000
G00 Z5.000000

(End cutting path id: path7018)


(Start cutting path id: path7016)
(Change tool to Default tool)

G00 Z5.000000
G00 X113.089840 Y27.574219

G01 Z-0.125000 F100.0(Penetrate)
G01 X113.050740 Y27.445312 Z-0.125000 F400.000000
G01 X113.060740 Y24.408203 Z-0.125000
G01 X113.629100 Y24.382813 Z-0.125000
G01 X115.004100 Y24.839845 Z-0.125000
G01 X114.740420 Y26.179689 Z-0.125000
G01 X113.089840 Y27.574219 Z-0.125000
G00 Z5.000000

(End cutting path id: path7016)


(Start cutting path id: path7014)
(Change tool to Default tool)

G00 Z5.000000
G00 X115.003910 Y24.839844

G01 Z-0.125000 F100.0(Penetrate)
G01 X113.628910 Y24.382812 Z-0.125000 F400.000000
G01 X113.943360 Y22.964844 Z-0.125000
G01 X115.423830 Y22.080078 Z-0.125000
G01 X115.070310 Y24.812500 Z-0.125000
G01 X115.003910 Y24.839844 Z-0.125000
G00 Z5.000000

(End cutting path id: path7014)


(Start cutting path id: path7012)
(Change tool to Default tool)

G00 Z5.000000
G00 X115.070310 Y24.812500

G01 Z-0.125000 F100.0(Penetrate)
G01 X115.423830 Y22.080078 Z-0.125000 F400.000000
G01 X115.447230 Y22.023438 Z-0.125000
G01 X115.519530 Y22.019538 Z-0.125000
G01 X116.912110 Y22.818366 Z-0.125000
G01 X118.498050 Y24.951179 Z-0.125000
G01 X115.070310 Y24.812500 Z-0.125000
G00 Z5.000000

(End cutting path id: path7012)


(Start cutting path id: path7010)
(Change tool to Default tool)

G00 Z5.000000
G00 X118.498050 Y24.951172

G01 Z-0.125000 F100.0(Penetrate)
G01 X116.912110 Y22.818359 Z-0.125000 F400.000000
G01 X117.820310 Y20.119141 Z-0.125000
G01 X117.841810 Y20.095701 Z-0.125000
G01 X117.955090 Y20.017571 Z-0.125000
G01 X118.478530 Y20.478509 Z-0.125000
G01 X119.054700 Y21.074212 Z-0.125000
G01 X119.285170 Y21.996087 Z-0.125000
G01 X119.039070 Y24.865227 Z-0.125000
G01 X118.734390 Y25.041009 Z-0.125000
G01 X118.498050 Y24.951172 Z-0.125000
G00 Z5.000000

(End cutting path id: path7010)


(Start cutting path id: path7008)
(Change tool to Default tool)

G00 Z5.000000
G00 X119.054690 Y21.074219

G01 Z-0.125000 F100.0(Penetrate)
G01 X118.478520 Y20.478516 Z-0.125000 F400.000000
G01 X121.205080 Y18.773438 Z-0.125000
G01 X121.330080 Y18.847658 Z-0.125000
G01 X121.423780 Y19.730471 Z-0.125000
G01 X120.595650 Y20.406252 Z-0.125000
G01 X119.054690 Y21.074219 Z-0.125000
G00 Z5.000000

(End cutting path id: path7008)


(Start cutting path id: path7006)
(Change tool to Default tool)

G00 Z5.000000
G00 X121.330080 Y18.847656

G01 Z-0.125000 F100.0(Penetrate)
G01 X121.205080 Y18.773436 Z-0.125000 F400.000000
G01 X120.177730 Y17.988279 Z-0.125000
G01 X120.566410 Y15.730467 Z-0.125000
G01 X121.291020 Y15.460936 Z-0.125000
G01 X122.248050 Y16.105467 Z-0.125000
G01 X121.431640 Y18.785154 Z-0.125000
G01 X121.330080 Y18.847656 Z-0.125000
G00 Z5.000000

(End cutting path id: path7006)


(Start cutting path id: path7004)
(Change tool to Default tool)

G00 Z5.000000
G00 X121.431640 Y18.785156

G01 Z-0.125000 F100.0(Penetrate)
G01 X122.248050 Y16.105469 Z-0.125000 F400.000000
G01 X122.968750 Y16.371094 Z-0.125000
G01 X122.908150 Y18.357422 Z-0.125000
G01 X121.431640 Y18.785156 Z-0.125000
G00 Z5.000000

(End cutting path id: path7004)


(Start cutting path id: path7002)
(Change tool to Default tool)

G00 Z5.000000
G00 X122.968750 Y16.371094

G01 Z-0.125000 F100.0(Penetrate)
G01 X122.248050 Y16.105469 Z-0.125000 F400.000000
G01 X121.291020 Y15.460938 Z-0.125000
G01 X121.703120 Y14.205078 Z-0.125000
G01 X123.757810 Y13.847656 Z-0.125000
G01 X124.250000 Y13.912106 Z-0.125000
G01 X124.250000 Y15.640622 Z-0.125000
G01 X123.093750 Y16.347653 Z-0.125000
G01 X122.968750 Y16.371094 Z-0.125000
G00 Z5.000000

(End cutting path id: path7002)


(Start cutting path id: path7000)
(Change tool to Default tool)

G00 Z5.000000
G00 X124.250000 Y13.912109

G01 Z-0.125000 F100.0(Penetrate)
G01 X123.757810 Y13.847659 Z-0.125000 F400.000000
G01 X122.792970 Y12.269534 Z-0.125000
G01 X123.138670 Y11.943362 Z-0.125000
G01 X123.714840 Y12.150394 Z-0.125000
G01 X124.318360 Y12.625003 Z-0.125000
G01 X124.488280 Y13.708987 Z-0.125000
G01 X124.250000 Y13.912109 Z-0.125000
G00 Z5.000000

(End cutting path id: path7000)


(Start cutting path id: path6998)
(Change tool to Default tool)

G00 Z5.000000
G00 X124.318360 Y12.625000

G01 Z-0.125000 F100.0(Penetrate)
G01 X123.714840 Y12.150391 Z-0.125000 F400.000000
G01 X124.537110 Y10.970703 Z-0.125000
G01 X124.875000 Y11.835938 Z-0.125000
G01 X124.318360 Y12.625000 Z-0.125000
G00 Z5.000000

(End cutting path id: path6998)


(Start cutting path id: path6996)
(Change tool to Default tool)

G00 Z5.000000
G00 X124.875000 Y11.835938

G01 Z-0.125000 F100.0(Penetrate)
G01 X124.537110 Y10.970703 Z-0.125000 F400.000000
G01 X124.462910 Y10.484375 Z-0.125000
G01 X124.496110 Y10.468745 Z-0.125000
G01 X126.804710 Y11.822261 Z-0.125000
G01 X126.626970 Y12.130854 Z-0.125000
G01 X124.875000 Y11.835938 Z-0.125000
G00 Z5.000000

(End cutting path id: path6996)


(Start cutting path id: path6994)
(Change tool to Default tool)

G00 Z5.000000
G00 X126.804690 Y11.822266

G01 Z-0.125000 F100.0(Penetrate)
G01 X124.496090 Y10.468750 Z-0.125000 F400.000000
G01 X124.765620 Y10.246094 Z-0.125000
G01 X126.113280 Y9.675781 Z-0.125000
G01 X126.818360 Y11.806641 Z-0.125000
G01 X126.804690 Y11.822266 Z-0.125000
G00 Z5.000000

(End cutting path id: path6994)


(Start cutting path id: path6992)
(Change tool to Default tool)

G00 Z5.000000
G00 X126.113280 Y9.675781

G01 Z-0.125000 F100.0(Penetrate)
G01 X124.765620 Y10.246094 Z-0.125000 F400.000000
G01 X124.619140 Y7.416016 Z-0.125000
G01 X126.273440 Y6.988281 Z-0.125000
G01 X126.830080 Y7.388672 Z-0.125000
G01 X127.113280 Y7.697266 Z-0.125000
G01 X126.113280 Y9.675781 Z-0.125000
G00 Z5.000000

(End cutting path id: path6992)


(Start cutting path id: path6990)
(Change tool to Default tool)

G00 Z5.000000
G00 X127.113280 Y7.697266

G01 Z-0.125000 F100.0(Penetrate)
G01 X126.830080 Y7.388672 Z-0.125000 F400.000000
G01 X127.816410 Y6.154297 Z-0.125000
G01 X129.910160 Y4.779297 Z-0.125000
G01 X128.974610 Y7.669922 Z-0.125000
G01 X128.328120 Y8.107422 Z-0.125000
G01 X128.224610 Y8.111322 Z-0.125000
G01 X127.113280 Y7.697266 Z-0.125000
G00 Z5.000000

(End cutting path id: path6990)


(Start cutting path id: path6988)
(Change tool to Default tool)

G00 Z5.000000
G00 X129.910160 Y4.779297

G01 Z-0.125000 F100.0(Penetrate)
G01 X127.816410 Y6.154297 Z-0.125000 F400.000000
G01 X128.974610 Y3.937500 Z-0.125000
G01 X129.763670 Y3.458984 Z-0.125000
G01 X130.412110 Y3.408204 Z-0.125000
G01 X130.560550 Y3.458984 Z-0.125000
G01 X129.910160 Y4.779297 Z-0.125000
G00 Z5.000000

(End cutting path id: path6988)


(Start cutting path id: path6986)
(Change tool to Default tool)

G00 Z5.000000
G00 X129.763670 Y3.458984

G01 Z-0.125000 F100.0(Penetrate)
G01 X128.974610 Y3.937500 Z-0.125000 F400.000000
G01 X127.488280 Y4.425781 Z-0.125000
G01 X126.968750 Y3.701172 Z-0.125000
G01 X127.705080 Y2.681641 Z-0.125000
G01 X127.806640 Y2.621091 Z-0.125000
G01 X129.763670 Y3.458984 Z-0.125000
G00 Z5.000000

(End cutting path id: path6986)


(Start cutting path id: path6984)
(Change tool to Default tool)

G00 Z5.000000
G00 X127.806640 Y2.621094

G01 Z-0.125000 F100.0(Penetrate)
G01 X127.705080 Y2.681644 Z-0.125000 F400.000000
G01 X125.490230 Y2.978519 Z-0.125000
G01 X125.490230 Y2.974619 Z-0.125000
G01 X126.941410 Y1.236338 Z-0.125000
G01 X127.150390 Y1.222668 Z-0.125000
G01 X127.806640 Y2.621094 Z-0.125000
G00 Z5.000000

(End cutting path id: path6984)


(Start cutting path id: path6982)
(Change tool to Default tool)

G00 Z5.000000
G00 X125.490230 Y2.974609

G01 Z-0.125000 F100.0(Penetrate)
G01 X125.490230 Y2.978509 Z-0.125000 F400.000000
G01 X125.419930 Y3.396477 Z-0.125000
G01 X124.976570 Y4.164055 Z-0.125000
G01 X123.728530 Y4.158155 Z-0.125000
G01 X122.943370 Y3.341749 Z-0.125000
G01 X123.873060 Y0.482374 Z-0.125000
G01 X125.490230 Y2.974609 Z-0.125000
G00 Z5.000000

(End cutting path id: path6982)


(Start cutting path id: path6980)
(Change tool to Default tool)

G00 Z5.000000
G00 X122.943360 Y3.341797

G01 Z-0.125000 F100.0(Penetrate)
G01 X123.728520 Y4.158203 Z-0.125000 F400.000000
G01 X123.439450 Y4.619141 Z-0.125000
G01 X121.476560 Y4.583981 Z-0.125000
G01 X120.781250 Y3.199216 Z-0.125000
G01 X122.943360 Y3.341797 Z-0.125000
G00 Z5.000000

(End cutting path id: path6980)


(Start cutting path id: path6978)
(Change tool to Default tool)

G00 Z5.000000
G00 X120.781250 Y3.199219

G01 Z-0.125000 F100.0(Penetrate)
G01 X121.476560 Y4.583984 Z-0.125000 F400.000000
G01 X121.695310 Y5.275391 Z-0.125000
G01 X121.113280 Y6.369141 Z-0.125000
G01 X120.908200 Y6.550781 Z-0.125000
G01 X119.107420 Y4.281250 Z-0.125000
G01 X120.144530 Y2.970703 Z-0.125000
G01 X120.343750 Y2.986333 Z-0.125000
G01 X120.781250 Y3.199219 Z-0.125000
G00 Z5.000000

(End cutting path id: path6978)


(Start cutting path id: path6976)
(Change tool to Default tool)

G00 Z5.000000
G00 X120.144530 Y2.970703

G01 Z-0.125000 F100.0(Penetrate)
G01 X119.107420 Y4.281250 Z-0.125000 F400.000000
G01 X117.988280 Y4.802734 Z-0.125000
G01 X117.714840 Y4.748044 Z-0.125000
G01 X116.597660 Y4.085935 Z-0.125000
G01 X116.595660 Y4.048825 Z-0.125000
G01 X118.964800 Y0.650388 Z-0.125000
G01 X120.144530 Y2.970703 Z-0.125000
G00 Z5.000000

(End cutting path id: path6976)


(Start cutting path id: path6974)
(Change tool to Default tool)

G00 Z5.000000
G00 X116.597660 Y4.085938

G01 Z-0.125000 F100.0(Penetrate)
G01 X117.714840 Y4.748047 Z-0.125000 F400.000000
G01 X116.455080 Y6.365234 Z-0.125000
G01 X114.531250 Y4.908203 Z-0.125000
G01 X114.699220 Y4.601562 Z-0.125000
G01 X116.597660 Y4.085938 Z-0.125000
G00 Z5.000000

(End cutting path id: path6974)


(Start cutting path id: path6972)
(Change tool to Default tool)

G00 Z5.000000
G00 X114.699220 Y4.601562

G01 Z-0.125000 F100.0(Penetrate)
G01 X114.531250 Y4.908203 Z-0.125000 F400.000000
G01 X113.925780 Y5.865234 Z-0.125000
G01 X113.439450 Y6.361328 Z-0.125000
G01 X112.390620 Y6.554688 Z-0.125000
G01 X111.880860 Y3.880859 Z-0.125000
G01 X112.113280 Y3.298828 Z-0.125000
G01 X112.923830 Y2.894531 Z-0.125000
G01 X113.644530 Y2.857421 Z-0.125000
G01 X114.699220 Y4.601562 Z-0.125000
G00 Z5.000000

(End cutting path id: path6972)


(Start cutting path id: path6970)
(Change tool to Default tool)

G00 Z5.000000
G00 X111.880860 Y3.880859

G01 Z-0.125000 F100.0(Penetrate)
G01 X112.390620 Y6.554688 Z-0.125000 F400.000000
G01 X112.041020 Y6.794922 Z-0.125000
G01 X111.781250 Y6.849612 Z-0.125000
G01 X110.275390 Y5.490237 Z-0.125000
G01 X109.955080 Y5.062503 Z-0.125000
G01 X109.744140 Y4.115237 Z-0.125000
G01 X111.880860 Y3.880859 Z-0.125000
G00 Z5.000000

(End cutting path id: path6970)


(Start cutting path id: path6968)
(Change tool to Default tool)

G00 Z5.000000
G00 X109.955080 Y5.062500

G01 Z-0.125000 F100.0(Penetrate)
G01 X110.275390 Y5.490234 Z-0.125000 F400.000000
G01 X109.238280 Y6.183594 Z-0.125000
G01 X108.898440 Y5.550781 Z-0.125000
G01 X109.955080 Y5.062500 Z-0.125000
G00 Z5.000000

(End cutting path id: path6968)


(Start cutting path id: path6966)
(Change tool to Default tool)

G00 Z5.000000
G00 X109.238280 Y6.183594

G01 Z-0.125000 F100.0(Penetrate)
G01 X110.275390 Y5.490234 Z-0.125000 F400.000000
G01 X111.781250 Y6.849609 Z-0.125000
G01 X110.369140 Y8.087891 Z-0.125000
G01 X108.984380 Y7.259766 Z-0.125000
G01 X108.857420 Y6.650391 Z-0.125000
G01 X109.238280 Y6.183594 Z-0.125000
G00 Z5.000000

(End cutting path id: path6966)


(Start cutting path id: path6964)
(Change tool to Default tool)

G00 Z5.000000
G00 X110.369140 Y8.087891

G01 Z-0.125000 F100.0(Penetrate)
G01 X111.781250 Y6.849609 Z-0.125000 F400.000000
G01 X112.041020 Y6.794919 Z-0.125000
G01 X113.095700 Y9.451169 Z-0.125000
